; generated by Slic3r++ 2.2.47 on 2020-03-04 at 15:10:20 UTC

; 

; external perimeters extrusion width = 0.42mm
; perimeters extrusion width = 0.45mm
; infill extrusion width = 0.45mm
; solid infill extrusion width = 0.45mm
; top infill extrusion width = 0.42mm
; first layer extrusion width = 0.60mm

M201 X9000 Y9000 Z9000 E10000 ; sets maximum accelerations, mm/sec^2
M203 X500 Y500 Z500 E100 ; sets maximum feedrates, mm/sec
M204 P1500 R1500 T1500 ; sets acceleration (P, T) and retract acceleration (R), mm/sec^2
M205 X20.00 Y20.00 Z20.00 E5.00 ; sets the jerk limits, mm/sec
M205 S0 T0 ; sets the minimum extruding and travel feed rate, mm/sec
M107
M104 S190 ; set temperature
G28 ; home all axes
G1 Z5 F5000 ; lift nozzle
M106 ; fan on
M109 S190 ; set temperature and wait for it to be reached
G21 ; set units to millimeters
G90 ; use absolute coordinates
M82 ; use absolute distances for extrusion
G92 E0
; Filament gcode
M106 S89.25
G1 Z0.300 F12000.000
G1 E-8.00000 F4800.00000
G1 X-0.018 Y34.767 F12000.000
G1 E0.00000 F1800.00000
G1 F1866.997
G1 X-26.090 Y34.753 E1.65470
G1 X-27.547 Y34.606 E1.74764
G1 X-28.805 Y34.384 E1.82870
G1 X-31.528 Y33.567 E2.00908
G1 X-32.763 Y33.031 E2.09454
G1 X-34.129 Y32.306 E2.19271
G1 X-35.218 Y31.619 E2.27440
G1 X-36.248 Y30.847 E2.35609
G1 X-37.782 Y29.486 E2.48626
G1 X-39.153 Y27.934 E2.61768
G1 X-40.216 Y26.455 E2.73327
G1 X-41.169 Y24.762 E2.85656
G1 X-41.914 Y23.057 E2.97466
G1 X-42.520 Y21.108 E3.10423
G1 X-42.861 Y19.399 E3.21480
G1 X-43.046 Y17.455 E3.33871
G1 X-43.012 Y-21.756 E5.82731
G1 X-42.632 Y-24.400 E5.99680
G1 X-41.811 Y-27.090 E6.17530
G1 X-41.282 Y-28.296 E6.25887
G1 X-40.564 Y-29.643 E6.35578
G1 X-39.886 Y-30.714 E6.43622
G1 X-39.120 Y-31.736 E6.51728
G1 X-38.035 Y-32.987 E6.62234
G1 X-36.872 Y-34.091 E6.72413
G1 X-35.417 Y-35.240 E6.84176
G1 X-33.962 Y-36.162 E6.95108
G1 X-32.383 Y-36.970 E7.06368
G1 X-30.834 Y-37.576 E7.16923
G1 X-28.985 Y-38.104 E7.29126
G1 X-27.219 Y-38.408 E7.40497
G1 X-25.044 Y-38.551 E7.54331
G1 X20.218 Y-38.551 E10.41590
G1 X21.613 Y-38.490 E10.50450
G1 X23.351 Y-38.276 E10.61565
G1 X24.724 Y-37.974 E10.70488
G1 X26.288 Y-37.495 E10.80870
G1 X27.693 Y-36.927 E10.90483
G1 X29.139 Y-36.184 E11.00802
G1 X30.328 Y-35.452 E11.09662
G1 X31.449 Y-34.620 E11.18522
G1 X32.600 Y-33.632 E11.28150
G1 X33.604 Y-32.606 E11.37261
G1 X34.693 Y-31.281 E11.48144
G1 X35.537 Y-30.048 E11.57632
G1 X36.376 Y-28.541 E11.68579
G1 X36.963 Y-27.252 E11.77565
G1 X37.430 Y-25.926 E11.86488
G1 X37.892 Y-24.203 E11.97810
G1 X38.149 Y-22.590 E12.08177
G1 X38.279 Y-20.612 E12.20755
G1 X38.242 Y17.808 E14.64591
G1 X38.096 Y19.266 E14.73885
G1 X37.874 Y20.523 E14.81991
G1 X37.059 Y23.246 E15.00029
G1 X36.524 Y24.482 E15.08575
G1 X35.800 Y25.848 E15.18391
G1 X35.113 Y26.937 E15.26561
G1 X34.336 Y27.976 E15.34792
G1 X32.967 Y29.517 E15.47874
G1 X31.415 Y30.887 E15.61014
G1 X29.919 Y31.960 E15.72699
G1 X28.215 Y32.915 E15.85091
G1 X26.508 Y33.656 E15.96902
G1 X24.548 Y34.260 E16.09920
G1 X22.838 Y34.596 E16.20978
G1 X20.865 Y34.778 E16.33558
G1 X0.042 Y34.767 E17.65708
G1 X0.042 Y34.234 F12000.000
G1 F1866.997
G1 X-26.120 Y34.214 E19.31752
G1 X-27.572 Y34.062 E19.41013
G1 X-28.835 Y33.828 E19.49169
G1 X-30.388 Y33.397 E19.59396
G1 X-31.580 Y32.971 E19.67427
G1 X-32.767 Y32.432 E19.75706
G1 X-34.162 Y31.664 E19.85810
G1 X-35.248 Y30.941 E19.94088
G1 X-36.329 Y30.087 E20.02833
G1 X-37.679 Y28.824 E20.14568
G1 X-38.967 Y27.306 E20.27202
G1 X-39.935 Y25.893 E20.38073
G1 X-40.836 Y24.227 E20.50092
G1 X-41.500 Y22.627 E20.61087
G1 X-42.058 Y20.746 E20.73536
G1 X-42.357 Y19.129 E20.83975
G1 X-42.519 Y17.232 E20.96055
G1 X-42.528 Y-20.500 E23.35521
G1 X-42.472 Y-21.793 E23.43738
G1 X-42.317 Y-23.176 E23.52567
G1 X-42.076 Y-24.428 E23.60660
G1 X-41.646 Y-25.951 E23.70702
G1 X-41.214 Y-27.140 E23.78734
G1 X-40.677 Y-28.308 E23.86889
G1 X-39.916 Y-29.684 E23.96869
G1 X-39.202 Y-30.752 E24.05025
G1 X-38.360 Y-31.818 E24.13645
G1 X-37.229 Y-33.039 E24.24208
G1 X-35.929 Y-34.177 E24.35175
G1 X-34.723 Y-35.068 E24.44688
G1 X-33.437 Y-35.839 E24.54202
G1 X-31.968 Y-36.568 E24.64613
G1 X-30.483 Y-37.127 E24.74682
G1 X-28.724 Y-37.614 E24.86267
G1 X-27.014 Y-37.891 E24.97261
G1 X-25.037 Y-38.016 E25.09833
G1 X20.218 Y-38.016 E27.97043
G1 X21.579 Y-37.955 E28.05693
G1 X23.269 Y-37.746 E28.16497
G1 X24.600 Y-37.453 E28.25147
G1 X26.131 Y-36.983 E28.35312
G1 X27.493 Y-36.430 E28.44641
G1 X28.916 Y-35.695 E28.54806
G1 X30.074 Y-34.977 E28.63455
G1 X31.165 Y-34.160 E28.72104
G1 X32.268 Y-33.209 E28.81343
G1 X33.244 Y-32.204 E28.90240
G1 X34.301 Y-30.911 E29.00836
G1 X35.131 Y-29.686 E29.10226
G1 X35.936 Y-28.223 E29.20824
G1 X36.505 Y-26.953 E29.29659
G1 X37.062 Y-25.296 E29.40749
G1 X37.398 Y-23.945 E29.49583
G1 X37.623 Y-22.464 E29.59097
G1 X37.743 Y-20.593 E29.70990
G1 X37.702 Y17.858 E32.15023
G1 X37.550 Y19.300 E32.24223
G1 X37.317 Y20.563 E32.32378
G1 X36.882 Y22.125 E32.42667
G1 X36.456 Y23.317 E32.50698
G1 X35.916 Y24.504 E32.58977
G1 X35.148 Y25.899 E32.69081
G1 X34.430 Y26.976 E32.77298
G1 X33.576 Y28.057 E32.86044
G1 X32.305 Y29.414 E32.97840
G1 X30.779 Y30.707 E33.10534
G1 X29.364 Y31.673 E33.21406
G1 X27.689 Y32.577 E33.33487
G1 X26.087 Y33.237 E33.44481
G1 X24.196 Y33.795 E33.56993
G1 X22.578 Y34.090 E33.67432
G1 X20.662 Y34.249 E33.79635
G1 X0.102 Y34.234 E35.10116
G92 E0
G1 E-8.00000 F4800.00000
G1 X-2.863 Y-1.102 F12000.000
G1 E0.00000 F1800.00000
G1 F1866.997
G1 X-21.938 Y-16.860 E1.57025
G1 X-22.285 Y-17.095 E1.59683
G1 X-22.682 Y-17.266 E1.62431
G1 X-23.105 Y-17.361 E1.65179
G1 X-23.537 Y-17.374 E1.67927
G1 X-23.965 Y-17.306 E1.70675
G1 X-24.372 Y-17.159 E1.73423
G1 X-24.745 Y-16.939 E1.76171
G1 X-25.070 Y-16.652 E1.78920
G1 X-25.335 Y-16.310 E1.81668
G1 X-25.532 Y-15.924 E1.84416
G1 X-25.652 Y-15.508 E1.87164
G1 X-25.692 Y-15.092 E1.89822
G1 X-25.692 Y12.888 E3.67392
G1 X-25.652 Y13.305 E3.70050
G1 X-25.532 Y13.720 E3.72798
G1 X-25.335 Y14.106 E3.75546
G1 X-25.070 Y14.448 E3.78294
G1 X-24.745 Y14.735 E3.81042
G1 X-24.372 Y14.955 E3.83790
G1 X-23.965 Y15.102 E3.86539
G1 X-23.537 Y15.170 E3.89287
G1 X-23.105 Y15.157 E3.92035
G1 X-22.682 Y15.063 E3.94783
G1 X-22.285 Y14.891 E3.97531
G1 X-21.938 Y14.656 E4.00189
G1 X-2.909 Y-1.064 E5.56833
G1 X-2.589 Y-1.393 F12000.000
G92 E0
G1 E-8.00000 F4800.00000
G1 X-22.322 Y-18.284 F12000.000
G1 E0.00000 F1800.00000
G1 F1200.000
G1 X-22.970 Y-18.428 E0.04214
G1 X-23.606 Y-18.448 E0.08247
G1 X-24.233 Y-18.348 E0.12280
G1 X-24.831 Y-18.133 E0.16313
G1 X-25.621 Y-17.665 E0.22137
G1 X-25.621 Y-20.413 E0.39574
G1 X-25.602 Y-20.602 E0.40777
G1 X-25.509 Y-20.826 E0.42318
G1 X-25.432 Y-20.920 E0.43092
G1 X-25.230 Y-21.055 E0.44632
G1 X-25.113 Y-21.090 E0.45406
G1 X-24.925 Y-21.109 E0.46610
G1 X-21.247 Y-21.109 E0.69946
G1 X-21.808 Y-20.300 E0.76191
G1 X-22.079 Y-19.712 E0.80299
G1 X-22.262 Y-19.034 E0.84758
G1 X-22.317 Y-18.344 E0.89153
G1 X-21.691 Y-17.422 F12000.000
G1 F1200.000
G1 X-22.516 Y-17.778 E0.94860
G1 X-23.038 Y-17.895 E0.98250
G1 X-23.572 Y-17.911 E1.01641
G1 X-24.099 Y-17.827 E1.05032
G1 X-24.602 Y-17.646 E1.08422
G1 X-25.061 Y-17.374 E1.11813
G1 X-25.462 Y-17.021 E1.15203
G1 X-25.812 Y-16.569 E1.18829
G1 X-26.156 Y-16.687 E1.21137
G1 X-26.156 Y-20.439 E1.44952
G1 X-26.130 Y-20.707 E1.46657
G1 X-26.064 Y-20.924 E1.48101
G1 X-25.957 Y-21.125 E1.49544
G1 X-25.812 Y-21.301 E1.50988
G1 X-25.637 Y-21.445 E1.52431
G1 X-25.436 Y-21.552 E1.53875
G1 X-25.218 Y-21.618 E1.55319
G1 X-24.951 Y-21.645 E1.57024
G1 X-20.198 Y-21.645 E1.87187
G1 X-20.086 Y-21.289 E1.89551
G1 X-20.594 Y-20.931 E1.93500
G1 X-21.007 Y-20.516 E1.97213
G1 X-21.341 Y-20.033 E2.00939
G1 X-21.574 Y-19.529 E2.04463
G1 X-21.732 Y-18.942 E2.08323
G1 X-21.779 Y-18.358 E2.12040
G1 X-21.696 Y-17.481 E2.17629
G92 E0
G1 E-8.00000 F4800.00000
G1 X-2.392 Y-1.491 F12000.000
G1 E0.00000 F1800.00000
G1 F1866.997
G1 X15.450 Y-16.230 E1.46872
G1 X15.789 Y-16.564 E1.49897
G1 X16.073 Y-16.964 E1.53005
G1 X16.283 Y-17.406 E1.56114
G1 X16.412 Y-17.879 E1.59222
G1 X16.458 Y-18.366 E1.62331
G1 X16.417 Y-18.854 E1.65440
G1 X16.292 Y-19.328 E1.68548
G1 X16.087 Y-19.773 E1.71657
G1 X15.807 Y-20.175 E1.74765
G1 X15.462 Y-20.522 E1.77874
G1 X15.061 Y-20.804 E1.80982
G1 X14.617 Y-21.011 E1.84091
G1 X14.144 Y-21.139 E1.87199
G1 X13.670 Y-21.180 E1.90224
G1 X-18.453 Y-21.180 E3.94093
G1 X-18.929 Y-21.138 E3.97121
G1 X-19.376 Y-21.018 E4.00059
G1 X-19.845 Y-20.804 E4.03336
G1 X-20.247 Y-20.520 E4.06458
G1 X-20.593 Y-20.172 E4.09571
G1 X-20.874 Y-19.767 E4.12703
G1 X-21.068 Y-19.346 E4.15642
G1 X-21.202 Y-18.850 E4.18902
G1 X-21.241 Y-18.362 E4.22012
G1 X-21.195 Y-17.875 E4.25114
G1 X-21.066 Y-17.404 E4.28216
G1 X-20.867 Y-16.985 E4.31154
G1 X-20.573 Y-16.565 E4.34412
G1 X-20.234 Y-16.230 E4.37439
G1 X-2.438 Y-1.529 E5.83930
G1 X-2.118 Y-1.199 F12000.000
G1 X-2.392 Y-0.713
G1 F1866.997
G1 X-18.349 Y12.469 E7.15292
G1 X-18.689 Y12.804 E7.18317
G1 X-18.973 Y13.203 E7.21425
G1 X-19.182 Y13.646 E7.24534
G1 X-19.312 Y14.118 E7.27642
G1 X-19.357 Y14.606 E7.30751
G1 X-19.317 Y15.094 E7.33859
G1 X-19.192 Y15.568 E7.36968
G1 X-18.986 Y16.012 E7.40076
G1 X-18.707 Y16.414 E7.43185
G1 X-18.361 Y16.762 E7.46294
G1 X-17.961 Y17.043 E7.49402
G1 X-17.517 Y17.251 E7.52511
G1 X-17.044 Y17.378 E7.55619
G1 X-16.569 Y17.420 E7.58644
G1 X11.785 Y17.420 E9.38596
G1 X12.260 Y17.378 E9.41621
G1 X12.733 Y17.251 E9.44730
G1 X13.177 Y17.043 E9.47838
G1 X13.577 Y16.762 E9.50947
G1 X13.923 Y16.414 E9.54056
G1 X14.203 Y16.012 E9.57164
G1 X14.408 Y15.568 E9.60273
G1 X14.533 Y15.094 E9.63381
G1 X14.573 Y14.606 E9.66490
G1 X14.528 Y14.118 E9.69598
G1 X14.399 Y13.646 E9.72707
G1 X14.189 Y13.203 E9.75815
G1 X13.905 Y12.804 E9.78924
G1 X13.566 Y12.469 E9.81949
G1 X-2.346 Y-0.675 E11.12929
G1 X-2.665 Y-1.005 F12000.000
G92 E0
G1 E-8.00000 F4800.00000
G1 X14.811 Y14.067 F12000.000
G1 X-20.349 Y14.626
G1 X-20.417 Y14.789
G1 E0.00000 F1800.00000
G1 F1200.000
G1 X-20.377 Y15.276 E0.03105
G1 X-20.204 Y15.932 E0.07407
G1 X-19.920 Y16.547 E0.11709
G1 X-19.362 Y17.349 E0.17906
G1 X-24.925 Y17.349 E0.53209
G1 X-25.113 Y17.330 E0.54413
G1 X-25.338 Y17.237 E0.55953
G1 X-25.509 Y17.065 E0.57494
G1 X-25.567 Y16.958 E0.58268
G1 X-25.602 Y16.841 E0.59042
G1 X-25.621 Y16.652 E0.60246
G1 X-25.621 Y15.462 E0.67804
G1 X-24.831 Y15.929 E0.73628
G1 X-24.233 Y16.144 E0.77661
G1 X-23.606 Y16.244 E0.81694
G1 X-22.970 Y16.224 E0.85727
G1 X-22.350 Y16.086 E0.89760
G1 X-21.767 Y15.834 E0.93793
G1 X-21.295 Y15.514 E0.97414
G1 X-20.463 Y14.827 E1.04258
G1 X-19.800 Y13.585 F12000.000
G1 F1200.000
G1 X-19.895 Y14.603 E1.10752
G1 X-19.847 Y15.185 E1.14457
G1 X-19.698 Y15.750 E1.18162
G1 X-19.453 Y16.280 E1.21867
G1 X-19.120 Y16.759 E1.25573
G1 X-18.708 Y17.173 E1.29278
G1 X-18.201 Y17.529 E1.33207
G1 X-18.314 Y17.884 E1.35572
G1 X-24.951 Y17.884 E1.77694
G1 X-25.218 Y17.858 E1.79400
G1 X-25.436 Y17.792 E1.80843
G1 X-25.637 Y17.685 E1.82287
G1 X-25.812 Y17.540 E1.83731
G1 X-25.957 Y17.364 E1.85174
G1 X-26.064 Y17.164 E1.86618
G1 X-26.130 Y16.946 E1.88061
G1 X-26.156 Y16.679 E1.89767
G1 X-26.156 Y14.483 E2.03703
G1 X-25.812 Y14.365 E2.06011
G1 X-25.462 Y14.817 E2.09637
G1 X-25.061 Y15.170 E2.13027
G1 X-24.602 Y15.442 E2.16418
G1 X-24.099 Y15.623 E2.19808
G1 X-23.572 Y15.707 E2.23199
G1 X-23.038 Y15.691 E2.26590
G1 X-22.516 Y15.574 E2.29980
G1 X-22.026 Y15.362 E2.33371
G1 X-21.616 Y15.085 E2.36510
G1 X-19.847 Y13.623 E2.51079
G92 E0
G1 E-8.00000 F4800.00000
G1 X-19.994 Y13.957 F12000.000
G1 X14.818 Y17.218
G1 X14.578 Y17.349
G1 E0.00000 F1800.00000
G1 F1200.000
G1 X15.136 Y16.547 E0.06197
G1 X15.420 Y15.932 E0.10499
G1 X15.593 Y15.276 E0.14801
G1 X15.633 Y14.789 E0.17906
G1 X16.511 Y15.514 E0.25131
G1 X16.983 Y15.834 E0.28752
G1 X17.566 Y16.086 E0.32785
G1 X18.187 Y16.224 E0.36819
G1 X18.822 Y16.244 E0.40852
G1 X19.449 Y16.144 E0.44885
G1 X20.047 Y15.929 E0.48918
G1 X20.837 Y15.462 E0.54741
G1 X20.837 Y16.652 E0.62300
G1 X20.818 Y16.841 E0.63503
G1 X20.725 Y17.065 E0.65044
G1 X20.554 Y17.237 E0.66584
G1 X20.446 Y17.295 E0.67358
G1 X20.329 Y17.330 E0.68132
G1 X20.141 Y17.349 E0.69336
G1 X14.638 Y17.349 E1.04259
G1 X13.530 Y17.884 F12000.000
G1 F1200.000
G1 X13.418 Y17.529 E1.06624
G1 X13.924 Y17.173 E1.10553
G1 X14.336 Y16.759 E1.14258
G1 X14.669 Y16.280 E1.17963
G1 X14.914 Y15.750 E1.21669
G1 X15.063 Y15.185 E1.25374
G1 X15.111 Y14.603 E1.29079
G1 X15.017 Y13.585 E1.35573
G1 X16.833 Y15.085 E1.50522
G1 X17.242 Y15.362 E1.53661
G1 X17.732 Y15.574 E1.57052
G1 X18.254 Y15.691 E1.60442
G1 X18.788 Y15.707 E1.63833
G1 X19.315 Y15.623 E1.67224
G1 X19.818 Y15.442 E1.70614
G1 X20.278 Y15.170 E1.74005
G1 X20.678 Y14.817 E1.77395
G1 X21.028 Y14.365 E1.81021
G1 X21.372 Y14.483 E1.83329
G1 X21.372 Y16.679 E1.97265
G1 X21.346 Y16.946 E1.98970
G1 X21.280 Y17.164 E2.00414
G1 X21.173 Y17.364 E2.01858
G1 X21.029 Y17.540 E2.03301
G1 X20.853 Y17.685 E2.04745
G1 X20.652 Y17.792 E2.06189
G1 X20.434 Y17.858 E2.07632
G1 X20.167 Y17.884 E2.09338
G1 X13.590 Y17.884 E2.51079
G92 E0
G1 E-8.00000 F4800.00000
G1 X13.544 Y17.684 F12000.000
G1 X14.909 Y17.176
G1 X16.209 Y16.425
G1 X15.232 Y13.991
G1 X14.811 Y14.067
G1 X-1.921 Y-1.102
G1 E0.00000 F1800.00000
G1 F1866.997
G1 X17.154 Y14.656 E1.57025
G1 X17.501 Y14.891 E1.59683
G1 X17.898 Y15.063 E1.62431
G1 X18.321 Y15.157 E1.65179
G1 X18.754 Y15.170 E1.67927
G1 X19.181 Y15.102 E1.70675
G1 X19.589 Y14.955 E1.73423
G1 X19.961 Y14.735 E1.76171
G1 X20.286 Y14.448 E1.78920
G1 X20.551 Y14.106 E1.81668
G1 X20.748 Y13.720 E1.84416
G1 X20.869 Y13.305 E1.87164
G1 X20.908 Y12.888 E1.89822
G1 X20.908 Y-15.092 E3.67392
G1 X20.869 Y-15.508 E3.70050
G1 X20.748 Y-15.924 E3.72798
G1 X20.551 Y-16.310 E3.75546
G1 X20.286 Y-16.652 E3.78294
G1 X19.961 Y-16.939 E3.81042
G1 X19.589 Y-17.159 E3.83790
G1 X19.181 Y-17.306 E3.86539
G1 X18.754 Y-17.374 E3.89287
G1 X18.321 Y-17.361 E3.92035
G1 X17.898 Y-17.266 E3.94783
G1 X17.501 Y-17.095 E3.97531
G1 X17.154 Y-16.860 E4.00189
G1 X-1.875 Y-1.140 E5.56833
G1 X-2.195 Y-0.810 F12000.000
G92 E0
G1 E-8.00000 F4800.00000
G1 X17.539 Y-18.284 F12000.000
G1 E0.00000 F1800.00000
G1 F1200.000
G1 X17.477 Y-19.037 E0.04793
G1 X17.304 Y-19.692 E0.09095
G1 X17.020 Y-20.307 E0.13396
G1 X16.462 Y-21.109 E0.19594
G1 X20.141 Y-21.109 E0.42939
G1 X20.329 Y-21.090 E0.44143
G1 X20.446 Y-21.055 E0.44917
G1 X20.648 Y-20.920 E0.46457
G1 X20.783 Y-20.718 E0.47998
G1 X20.818 Y-20.602 E0.48772
G1 X20.837 Y-20.413 E0.49976
G1 X20.837 Y-17.665 E0.67412
G1 X20.047 Y-18.133 E0.73236
G1 X19.449 Y-18.348 E0.77269
G1 X18.822 Y-18.448 E0.81302
G1 X18.187 Y-18.428 E0.85335
G1 X17.598 Y-18.297 E0.89163
G1 X16.908 Y-17.422 F12000.000
G1 F1200.000
G1 X16.995 Y-18.364 E0.95165
G1 X16.947 Y-18.946 E0.98870
G1 X16.798 Y-19.510 E1.02575
G1 X16.553 Y-20.040 E1.06281
G1 X16.220 Y-20.519 E1.09986
G1 X15.808 Y-20.933 E1.13691
G1 X15.302 Y-21.289 E1.17620
G1 X15.414 Y-21.645 E1.19985
G1 X20.167 Y-21.645 E1.50149
G1 X20.434 Y-21.618 E1.51855
G1 X20.652 Y-21.552 E1.53299
G1 X20.853 Y-21.445 E1.54742
G1 X21.029 Y-21.301 E1.56186
G1 X21.173 Y-21.125 E1.57629
G1 X21.280 Y-20.924 E1.59073
G1 X21.346 Y-20.707 E1.60517
G1 X21.372 Y-20.439 E1.62222
G1 X21.372 Y-16.687 E1.86036
G1 X21.028 Y-16.569 E1.88344
G1 X20.678 Y-17.021 E1.91970
G1 X20.278 Y-17.374 E1.95361
G1 X19.818 Y-17.646 E1.98751
G1 X19.315 Y-17.827 E2.02142
G1 X18.788 Y-17.911 E2.05533
G1 X18.254 Y-17.895 E2.08923
G1 X17.732 Y-17.778 E2.12314
G1 X16.963 Y-17.446 E2.17632
G92 E0
G1 E-8.00000 F4800.00000
G1 X20.539 Y-22.146 F12000.000
G1 E0.00000 F1800.00000
G1 F1866.997
G1 X20.858 Y-22.049 E0.02113
G1 X21.152 Y-21.892 E0.04226
G1 X21.409 Y-21.681 E0.06340
G1 X21.620 Y-21.424 E0.08453
G1 X21.777 Y-21.130 E0.10566
G1 X21.874 Y-20.812 E0.12679
G1 X21.908 Y-20.465 E0.14887
G1 X21.908 Y16.705 E2.50790
G1 X21.874 Y17.051 E2.52997
G1 X21.777 Y17.370 E2.55110
G1 X21.620 Y17.663 E2.57223
G1 X21.409 Y17.921 E2.59337
G1 X21.152 Y18.132 E2.61450
G1 X20.858 Y18.289 E2.63563
G1 X20.539 Y18.386 E2.65676
G1 X20.193 Y18.420 E2.67884
G1 X-24.977 Y18.420 E5.54559
G1 X-25.323 Y18.386 E5.56766
G1 X-25.642 Y18.289 E5.58879
G1 X-25.936 Y18.132 E5.60993
G1 X-26.193 Y17.921 E5.63106
G1 X-26.404 Y17.663 E5.65219
G1 X-26.561 Y17.370 E5.67332
