; generated by Slic3r++ 2.2.47 on 2020-03-04 at 15:15:19 UTC

; 

; external perimeters extrusion width = 0.42mm
; perimeters extrusion width = 0.45mm
; infill extrusion width = 0.45mm
; solid infill extrusion width = 0.45mm
; top infill extrusion width = 0.42mm
; first layer extrusion width = 0.60mm

M201 X9000 Y9000 Z9000 E10000 ; sets maximum accelerations, mm/sec^2
M203 X500 Y500 Z500 E100 ; sets maximum feedrates, mm/sec
M204 P1500 R1500 T1500 ; sets acceleration (P, T) and retract acceleration (R), mm/sec^2
M205 X20.00 Y20.00 Z20.00 E5.00 ; sets the jerk limits, mm/sec
M205 S0 T0 ; sets the minimum extruding and travel feed rate, mm/sec
M107
M104 S190 ; set temperature
G28 ; home all axes
G1 Z5 F5000 ; lift nozzle
M106 ; fan on
M109 S190 ; set temperature and wait for it to be reached
G21 ; set units to millimeters
G90 ; use absolute coordinates
M82 ; use absolute distances for extrusion
G92 E0
; Filament gcode
M106 S89.25
G1 Z0.300 F12000.000
G1 E-8.00000 F4800.00000
G1 X0.025 Y34.287 F12000.000
G1 E0.00000 F1800.00000
G1 F1866.997
G1 X-27.010 Y34.308 E1.71580
G1 X-28.592 Y34.229 E1.81633
G1 X-30.159 Y33.994 E1.91686
G1 X-31.694 Y33.607 E2.01739
G1 X-33.176 Y33.074 E2.11730
G1 X-34.606 Y32.394 E2.21782
G1 X-35.963 Y31.576 E2.31835
G1 X-37.233 Y30.629 E2.41888
G1 X-38.396 Y29.569 E2.51879
G1 X-39.324 Y28.552 E2.60613
G1 X-40.161 Y27.460 E2.69347
G1 X-40.907 Y26.291 E2.78145
G1 X-41.545 Y25.072 E2.86879
G1 X-42.080 Y23.793 E2.95676
G1 X-42.500 Y22.483 E3.04410
G1 X-42.808 Y21.131 E3.13208
G1 X-42.998 Y19.768 E3.21942
G1 X-43.071 Y18.265 E3.31493
G1 X-43.071 Y-19.412 E5.70611
G1 X-42.991 Y-20.994 E5.80664
G1 X-42.758 Y-22.551 E5.90654
G1 X-42.370 Y-24.087 E6.00707
G1 X-41.834 Y-25.577 E6.10760
G1 X-41.157 Y-26.998 E6.20750
G1 X-40.340 Y-28.355 E6.30803
G1 X-39.393 Y-29.625 E6.40856
G1 X-38.332 Y-30.788 E6.50846
G1 X-37.270 Y-31.754 E6.59957
G1 X-36.134 Y-32.615 E6.69006
G1 X-34.926 Y-33.373 E6.78054
G1 X-33.656 Y-34.020 E6.87102
G1 X-32.333 Y-34.553 E6.96151
G1 X-30.969 Y-34.966 E7.05199
G1 X-29.573 Y-35.256 E7.14247
G1 X-28.147 Y-35.422 E7.23359
G1 X27.010 Y-35.463 E10.73413
G1 X28.414 Y-35.401 E10.82336
G1 X29.808 Y-35.216 E10.91258
G1 X31.171 Y-34.913 E11.00118
G1 X32.511 Y-34.489 E11.09041
G1 X33.810 Y-33.949 E11.17964
G1 X35.047 Y-33.303 E11.26824
G1 X36.232 Y-32.547 E11.35747
G1 X37.347 Y-31.690 E11.44669
G1 X38.382 Y-30.738 E11.53592
G1 X39.330 Y-29.700 E11.62515
G1 X40.184 Y-28.583 E11.71438
G1 X40.932 Y-27.404 E11.80298
G1 X41.579 Y-26.156 E11.89220
G1 X42.111 Y-24.865 E11.98080
G1 X42.531 Y-23.524 E12.07003
G1 X42.833 Y-22.151 E12.15926
G1 X43.008 Y-20.816 E12.24472
G1 X43.071 Y-19.461 E12.33081
G1 X43.071 Y18.266 E14.72513
G1 X43.011 Y19.631 E14.81185
G1 X42.827 Y21.025 E14.90107
G1 X42.521 Y22.407 E14.99093
G1 X42.097 Y23.748 E15.08016
G1 X41.557 Y25.046 E15.16939
G1 X40.901 Y26.301 E15.25924
G1 X40.143 Y27.485 E15.34847
G1 X39.285 Y28.598 E15.43770
G1 X38.332 Y29.632 E15.52692
G1 X37.270 Y30.598 E15.61804
G1 X36.134 Y31.460 E15.70852
G1 X34.926 Y32.217 E15.79900
G1 X33.656 Y32.864 E15.88949
G1 X32.333 Y33.397 E15.97997
G1 X30.969 Y33.810 E16.07045
G1 X29.573 Y34.100 E16.16094
G1 X28.147 Y34.267 E16.25205
G1 X0.085 Y34.287 E18.03298
G1 X0.085 Y33.754 F12000.000
G1 F1866.997
G1 X-27.039 Y33.772 E19.75441
G1 X-28.575 Y33.692 E19.85202
G1 X-30.095 Y33.460 E19.94962
G1 X-31.585 Y33.080 E20.04723
G1 X-33.021 Y32.558 E20.14421
G1 X-34.408 Y31.892 E20.24182
G1 X-35.722 Y31.093 E20.33942
G1 X-36.943 Y30.174 E20.43641
G1 X-38.074 Y29.132 E20.53401
G1 X-38.968 Y28.142 E20.61865
G1 X-39.768 Y27.087 E20.70268
G1 X-40.480 Y25.960 E20.78732
G1 X-41.093 Y24.775 E20.87196
G1 X-41.601 Y23.542 E20.95660
G1 X-42.000 Y22.280 E21.04062
G1 X-42.292 Y20.978 E21.12526
G1 X-42.471 Y19.657 E21.20990
G1 X-42.536 Y18.266 E21.29824
G1 X-42.536 Y-19.441 E23.69133
G1 X-42.455 Y-20.977 E23.78893
G1 X-42.224 Y-22.487 E23.88592
G1 X-41.844 Y-23.977 E23.98353
G1 X-41.321 Y-25.414 E24.08051
G1 X-40.656 Y-26.800 E24.17812
G1 X-39.856 Y-28.114 E24.27572
G1 X-38.937 Y-29.335 E24.37271
G1 X-37.896 Y-30.466 E24.47031
G1 X-36.868 Y-31.391 E24.55804
G1 X-35.771 Y-32.215 E24.64515
G1 X-34.605 Y-32.939 E24.73226
G1 X-33.370 Y-33.562 E24.81999
G1 X-32.086 Y-34.072 E24.90771
G1 X-30.770 Y-34.463 E24.99482
G1 X-29.425 Y-34.737 E25.08193
G1 X-28.061 Y-34.891 E25.16904
G1 X27.010 Y-34.928 E28.66414
G1 X28.362 Y-34.868 E28.75001
G1 X29.713 Y-34.689 E28.83650
G1 X31.043 Y-34.393 E28.92300
G1 X32.342 Y-33.980 E29.00949
G1 X33.600 Y-33.456 E29.09598
G1 X34.798 Y-32.829 E29.18186
G1 X35.946 Y-32.093 E29.26835
G1 X37.025 Y-31.261 E29.35484
G1 X38.026 Y-30.336 E29.44133
G1 X38.937 Y-29.335 E29.52721
G1 X39.762 Y-28.251 E29.61370
G1 X40.490 Y-27.098 E29.70019
G1 X41.113 Y-25.887 E29.78669
G1 X41.628 Y-24.625 E29.87318
G1 X42.030 Y-23.323 E29.95967
G1 X42.317 Y-21.990 E30.04616
G1 X42.478 Y-20.725 E30.12710
G1 X42.536 Y-19.451 E30.20803
G1 X42.536 Y18.256 E32.60112
G1 X42.478 Y19.569 E32.68453
G1 X42.300 Y20.930 E32.77163
G1 X42.003 Y22.270 E32.85874
G1 X41.588 Y23.578 E32.94585
G1 X41.060 Y24.845 E33.03296
G1 X40.422 Y26.060 E33.12007
G1 X39.673 Y27.222 E33.20780
G1 X38.831 Y28.306 E33.29491
G1 X37.896 Y29.311 E33.38202
G1 X36.868 Y30.235 E33.46975
G1 X35.771 Y31.059 E33.55686
G1 X34.605 Y31.783 E33.64397
G1 X33.370 Y32.406 E33.73170
G1 X32.086 Y32.916 E33.81942
G1 X30.770 Y33.308 E33.90653
G1 X29.425 Y33.581 E33.99364
G1 X28.061 Y33.736 E34.08075
G1 X0.145 Y33.754 E35.85246
G92 E0
G1 E-8.00000 F4800.00000
G1 X-12.800 Y-12.839 F12000.000
G1 E0.00000 F1800.00000
G1 F2400.000
G1 X-12.817 Y-12.839 E0.00007
G1 X-12.826 Y-12.839 E0.00015
G1 X-12.835 Y-12.839 E0.00027
G1 X-12.844 Y-12.839 E0.00045
G1 X-12.852 Y-12.839 E0.00068
G1 X-12.861 Y-12.839 E0.00096
G1 X-12.870 Y-12.839 E0.00129
G1 X-12.879 Y-12.839 E0.00168
G1 F2390.570
G1 X-12.887 Y-12.839 E0.00211
G1 F2139.046
G1 X-12.896 Y-12.839 E0.00260
G1 F1935.411
G1 X-12.905 Y-12.839 E0.00313
G1 F1767.178
G1 X-12.914 Y-12.839 E0.00372
G1 F1625.853
G1 X-12.922 Y-12.839 E0.00436
G1 F1505.458
G1 X-12.931 Y-12.839 E0.00504
G1 F1401.664
G1 X-25.069 Y-12.839 E1.03108
G1 F1505.458
G1 X-25.078 Y-12.839 E1.03177
G1 F1625.853
G1 X-25.086 Y-12.839 E1.03241
G1 F1767.178
G1 X-25.095 Y-12.839 E1.03300
G1 F1935.411
G1 X-25.104 Y-12.839 E1.03353
G1 F2139.046
G1 X-25.113 Y-12.839 E1.03402
G1 F2390.570
G1 X-25.121 Y-12.839 E1.03445
G1 F2400.000
G1 X-25.130 Y-12.839 E1.03483
G1 X-25.139 Y-12.839 E1.03517
G1 X-25.148 Y-12.839 E1.03545
G1 X-25.156 Y-12.839 E1.03568
G1 X-25.165 Y-12.839 E1.03585
G1 X-25.174 Y-12.839 E1.03598
G1 X-25.191 Y-12.839 E1.03614
G1 X-25.200 Y-12.839 E1.03617
G92 E0
G1 E-8.00000 F4800.00000
G1 X-26.000 Y-17.350 F12000.000
G1 X-25.479 Y-17.871
G1 X-12.800 Y-8.939
G1 E0.00000 F1800.00000
G1 F2400.000
G1 X-12.817 Y-8.939 E0.00007
G1 X-12.826 Y-8.939 E0.00015
G1 X-12.835 Y-8.939 E0.00027
G1 X-12.844 Y-8.939 E0.00045
G1 X-12.852 Y-8.939 E0.00068
G1 X-12.861 Y-8.939 E0.00096
G1 X-12.870 Y-8.939 E0.00129
G1 X-12.879 Y-8.939 E0.00168
G1 F2390.579
G1 X-12.887 Y-8.939 E0.00211
G1 F2139.054
G1 X-12.896 Y-8.939 E0.00260
G1 F1935.418
G1 X-12.905 Y-8.939 E0.00313
G1 F1767.184
G1 X-12.914 Y-8.939 E0.00372
G1 F1625.859
G1 X-12.922 Y-8.939 E0.00436
G1 F1505.463
G1 X-12.931 Y-8.939 E0.00504
G1 F1401.669
G1 X-25.069 Y-8.939 E1.03108
G1 F1505.463
G1 X-25.078 Y-8.939 E1.03177
G1 F1625.859
G1 X-25.086 Y-8.939 E1.03241
G1 F1767.184
G1 X-25.095 Y-8.939 E1.03299
G1 F1935.418
G1 X-25.104 Y-8.939 E1.03353
G1 F2139.054
G1 X-25.113 Y-8.939 E1.03401
G1 F2390.579
G1 X-25.121 Y-8.939 E1.03445
G1 F2400.000
G1 X-25.130 Y-8.939 E1.03483
G1 X-25.139 Y-8.939 E1.03516
G1 X-25.148 Y-8.939 E1.03544
G1 X-25.156 Y-8.939 E1.03567
G1 X-25.165 Y-8.939 E1.03585
G1 X-25.174 Y-8.939 E1.03598
G1 X-25.191 Y-8.939 E1.03613
G1 X-25.200 Y-8.939 E1.03617
G92 E0
G1 E-8.00000 F4800.00000
G1 X-26.000 Y-17.350 F12000.000
G1 X-25.479 Y-17.871
G1 X-12.800 Y-5.039
G1 E0.00000 F1800.00000
G1 F2400.000
G1 X-12.817 Y-5.039 E0.00007
G1 X-12.826 Y-5.039 E0.00015
G1 X-12.835 Y-5.039 E0.00027
G1 X-12.844 Y-5.039 E0.00045
G1 X-12.852 Y-5.039 E0.00068
G1 X-12.861 Y-5.039 E0.00096
G1 X-12.870 Y-5.039 E0.00129
G1 X-12.879 Y-5.039 E0.00168
G1 F2390.572
G1 X-12.887 Y-5.039 E0.00211
G1 F2139.047
G1 X-12.896 Y-5.039 E0.00260
G1 F1935.413
G1 X-12.905 Y-5.039 E0.00313
G1 F1767.180
G1 X-12.914 Y-5.039 E0.00372
G1 F1625.854
G1 X-12.922 Y-5.039 E0.00436
G1 F1505.459
G1 X-12.931 Y-5.039 E0.00504
G1 F1401.666
G1 X-25.069 Y-5.039 E1.03108
G1 F1505.455
G1 X-25.078 Y-5.039 E1.03177
G1 F1625.850
G1 X-25.086 Y-5.039 E1.03241
G1 F1767.175
G1 X-25.095 Y-5.039 E1.03300
G1 F1935.407
G1 X-25.104 Y-5.039 E1.03353
G1 F2139.041
G1 X-25.113 Y-5.039 E1.03402
G1 F2390.565
G1 X-25.121 Y-5.039 E1.03445
G1 F2400.000
G1 X-25.130 Y-5.039 E1.03483
G1 X-25.139 Y-5.039 E1.03516
G1 X-25.148 Y-5.039 E1.03545
G1 X-25.156 Y-5.039 E1.03567
G1 X-25.165 Y-5.039 E1.03585
G1 X-25.174 Y-5.039 E1.03598
G1 X-25.191 Y-5.039 E1.03613
G1 X-25.200 Y-5.039 E1.03617
G92 E0
G1 E-8.00000 F4800.00000
G1 X-26.000 Y-17.350 F12000.000
G1 X-12.800 Y-1.139
G1 E0.00000 F1800.00000
G1 F2400.000
G1 X-12.817 Y-1.139 E0.00007
G1 X-12.826 Y-1.139 E0.00015
G1 X-12.835 Y-1.139 E0.00027
G1 X-12.844 Y-1.139 E0.00045
G1 X-12.852 Y-1.139 E0.00068
G1 X-12.861 Y-1.139 E0.00096
G1 X-12.870 Y-1.139 E0.00129
G1 X-12.879 Y-1.139 E0.00168
G1 F2390.570
G1 X-12.887 Y-1.139 E0.00211
G1 F2139.046
G1 X-12.896 Y-1.139 E0.00260
G1 F1935.411
G1 X-12.905 Y-1.139 E0.00313
G1 F1767.178
G1 X-12.914 Y-1.139 E0.00372
G1 F1625.853
G1 X-12.922 Y-1.139 E0.00436
G1 F1505.458
G1 X-12.931 Y-1.139 E0.00504
G1 F1401.664
G1 X-25.069 Y-1.139 E1.03108
G1 F1505.458
G1 X-25.078 Y-1.139 E1.03177
G1 F1625.853
G1 X-25.086 Y-1.139 E1.03241
G1 F1767.178
G1 X-25.095 Y-1.139 E1.03300
G1 F1935.411
G1 X-25.104 Y-1.139 E1.03353
G1 F2139.046
G1 X-25.113 Y-1.139 E1.03402
G1 F2390.570
G1 X-25.121 Y-1.139 E1.03445
G1 F2400.000
G1 X-25.130 Y-1.139 E1.03483
G1 X-25.139 Y-1.139 E1.03517
G1 X-25.148 Y-1.139 E1.03545
G1 X-25.156 Y-1.139 E1.03568
G1 X-25.165 Y-1.139 E1.03585
G1 X-25.174 Y-1.139 E1.03598
G1 X-25.191 Y-1.139 E1.03614
G1 X-25.200 Y-1.139 E1.03617
G92 E0
G1 E-8.00000 F4800.00000
G1 X-26.000 Y-17.350 F12000.000
G1 X-26.000 Y17.022
G1 X-12.800 Y2.761
G1 E0.00000 F1800.00000
G1 F2400.000
G1 X-12.817 Y2.761 E0.00007
G1 X-12.826 Y2.761 E0.00015
G1 X-12.835 Y2.761 E0.00027
G1 X-12.844 Y2.761 E0.00045
G1 X-12.852 Y2.761 E0.00068
G1 X-12.861 Y2.761 E0.00096
G1 X-12.870 Y2.761 E0.00129
G1 X-12.879 Y2.761 E0.00168
G1 F2390.570
G1 X-12.887 Y2.761 E0.00211
G1 F2139.046
G1 X-12.896 Y2.761 E0.00260
G1 F1935.411
G1 X-12.905 Y2.761 E0.00313
G1 F1767.178
G1 X-12.914 Y2.761 E0.00372
G1 F1625.853
G1 X-12.922 Y2.761 E0.00436
G1 F1505.458
G1 X-12.931 Y2.761 E0.00504
G1 F1401.664
G1 X-25.069 Y2.761 E1.03108
G1 F1505.458
G1 X-25.078 Y2.761 E1.03177
G1 F1625.853
G1 X-25.086 Y2.761 E1.03241
G1 F1767.178
G1 X-25.095 Y2.761 E1.03300
G1 F1935.411
G1 X-25.104 Y2.761 E1.03353
G1 F2139.046
G1 X-25.113 Y2.761 E1.03402
G1 F2390.570
G1 X-25.121 Y2.761 E1.03445
G1 F2400.000
G1 X-25.130 Y2.761 E1.03483
G1 X-25.139 Y2.761 E1.03517
G1 X-25.148 Y2.761 E1.03545
G1 X-25.156 Y2.761 E1.03568
G1 X-25.165 Y2.761 E1.03585
G1 X-25.174 Y2.761 E1.03598
G1 X-25.191 Y2.761 E1.03614
G1 X-25.200 Y2.761 E1.03617
G92 E0
G1 E-8.00000 F4800.00000
G1 X-26.000 Y17.022 F12000.000
G1 X-25.893 Y17.129
G1 X-12.800 Y6.661
G1 E0.00000 F1800.00000
G1 F2400.000
G1 X-12.817 Y6.661 E0.00007
G1 X-12.826 Y6.661 E0.00015
G1 X-12.835 Y6.661 E0.00027
G1 X-12.844 Y6.661 E0.00045
G1 X-12.852 Y6.661 E0.00068
G1 X-12.861 Y6.661 E0.00096
G1 X-12.870 Y6.661 E0.00129
G1 X-12.879 Y6.661 E0.00168
G1 F2390.570
G1 X-12.887 Y6.661 E0.00211
G1 F2139.046
G1 X-12.896 Y6.661 E0.00260
G1 F1935.411
G1 X-12.905 Y6.661 E0.00313
G1 F1767.178
G1 X-12.914 Y6.661 E0.00372
G1 F1625.853
G1 X-12.922 Y6.661 E0.00436
G1 F1505.458
G1 X-12.931 Y6.661 E0.00504
G1 F1401.664
G1 X-25.069 Y6.661 E1.03108
G1 F1505.458
G1 X-25.078 Y6.661 E1.03177
G1 F1625.853
G1 X-25.086 Y6.661 E1.03241
G1 F1767.178
G1 X-25.095 Y6.661 E1.03300
G1 F1935.411
G1 X-25.104 Y6.661 E1.03353
G1 F2139.046
G1 X-25.113 Y6.661 E1.03402
G1 F2390.570
G1 X-25.121 Y6.661 E1.03445
G1 F2400.000
G1 X-25.130 Y6.661 E1.03483
G1 X-25.139 Y6.661 E1.03517
G1 X-25.148 Y6.661 E1.03545
G1 X-25.156 Y6.661 E1.03568
G1 X-25.165 Y6.661 E1.03585
G1 X-25.174 Y6.661 E1.03598
G1 X-25.191 Y6.661 E1.03614
G1 X-25.200 Y6.661 E1.03617
G92 E0
G1 E-8.00000 F4800.00000
G1 X-26.000 Y17.022 F12000.000
G1 X-25.893 Y17.129
G1 X-12.800 Y10.561
G1 E0.00000 F1800.00000
G1 F2400.000
G1 X-12.817 Y10.561 E0.00007
G1 X-12.826 Y10.561 E0.00015
G1 X-12.835 Y10.561 E0.00027
G1 X-12.844 Y10.561 E0.00045
G1 X-12.852 Y10.561 E0.00068
G1 X-12.861 Y10.561 E0.00096
G1 X-12.870 Y10.561 E0.00129
G1 X-12.879 Y10.561 E0.00168
G1 F2390.570
G1 X-12.887 Y10.561 E0.00211
G1 F2139.046
G1 X-12.896 Y10.561 E0.00260
G1 F1935.411
G1 X-12.905 Y10.561 E0.00313
G1 F1767.178
G1 X-12.914 Y10.561 E0.00372
G1 F1625.853
G1 X-12.922 Y10.561 E0.00436
G1 F1505.458
G1 X-12.931 Y10.561 E0.00504
G1 F1401.664
G1 X-25.069 Y10.561 E1.03108
G1 F1505.458
G1 X-25.078 Y10.561 E1.03177
G1 F1625.853
G1 X-25.086 Y10.561 E1.03241
G1 F1767.178
G1 X-25.095 Y10.561 E1.03300
G1 F1935.411
G1 X-25.104 Y10.561 E1.03353
G1 F2139.046
G1 X-25.113 Y10.561 E1.03402
G1 F2390.570
G1 X-25.121 Y10.561 E1.03445
G1 F2400.000
G1 X-25.130 Y10.561 E1.03483
G1 X-25.139 Y10.561 E1.03517
G1 X-25.148 Y10.561 E1.03545
G1 X-25.156 Y10.561 E1.03568
G1 X-25.165 Y10.561 E1.03585
G1 X-25.174 Y10.561 E1.03598
G1 X-25.191 Y10.561 E1.03614
G1 X-25.200 Y10.561 E1.03617
G92 E0
G1 E-8.00000 F4800.00000
G1 X-26.000 Y17.022 F12000.000
G1 X-25.893 Y17.129
G1 X-12.800 Y14.461
G1 E0.00000 F1800.00000
G1 F2400.000
G1 X-12.817 Y14.461 E0.00007
G1 X-12.826 Y14.461 E0.00015
G1 X-12.835 Y14.461 E0.00027
G1 X-12.844 Y14.461 E0.00045
G1 X-12.852 Y14.461 E0.00068
G1 X-12.861 Y14.461 E0.00096
G1 X-12.870 Y14.461 E0.00129
G1 X-12.879 Y14.461 E0.00168
G1 F2390.563
G1 X-12.887 Y14.461 E0.00211
G1 F2139.040
G1 X-12.896 Y14.461 E0.00260
G1 F1935.406
G1 X-12.905 Y14.461 E0.00313
G1 F1767.173
G1 X-12.914 Y14.461 E0.00372
G1 F1625.848
G1 X-12.922 Y14.461 E0.00436
G1 F1505.454
G1 X-12.931 Y14.461 E0.00504
G1 F1401.661
G1 X-25.069 Y14.461 E1.03109
G1 F1505.454
G1 X-25.078 Y14.461 E1.03178
G1 F1625.848
G1 X-25.086 Y14.461 E1.03241
G1 F1767.173
G1 X-25.095 Y14.461 E1.03300
G1 F1935.406
G1 X-25.104 Y14.461 E1.03354
G1 F2139.040
G1 X-25.113 Y14.461 E1.03402
G1 F2390.563
G1 X-25.121 Y14.461 E1.03445
G1 F2400.000
G1 X-25.130 Y14.461 E1.03484
G1 X-25.139 Y14.461 E1.03517
G1 X-25.148 Y14.461 E1.03545
G1 X-25.156 Y14.461 E1.03568
G1 X-25.165 Y14.461 E1.03586
G1 X-25.174 Y14.461 E1.03598
G1 X-25.191 Y14.461 E1.03614
G1 X-25.200 Y14.461 E1.03617
G92 E0
G1 E-8.00000 F4800.00000
G1 X-26.000 Y17.022 F12000.000
G1 X-26.000 Y-17.350
G1 X-25.479 Y-17.871
G1 X-11.700 Y-5.039
G1 E0.00000 F1800.00000
G1 F2400.000
G1 X-11.682 Y-5.039 E0.00007
G1 X-11.674 Y-5.039 E0.00015
G1 X-11.665 Y-5.039 E0.00027
G1 X-11.656 Y-5.039 E0.00045
G1 X-11.647 Y-5.039 E0.00068
G1 X-11.639 Y-5.039 E0.00096
G1 X-11.630 Y-5.039 E0.00129
G1 X-11.621 Y-5.039 E0.00168
G1 F2390.572
G1 X-11.612 Y-5.039 E0.00211
G1 F2139.047
G1 X-11.604 Y-5.039 E0.00260
G1 F1935.413
G1 X-11.595 Y-5.039 E0.00313
G1 F1767.180
G1 X-11.586 Y-5.039 E0.00372
G1 F1625.854
G1 X-11.577 Y-5.039 E0.00436
G1 F1505.459
G1 X-11.569 Y-5.039 E0.00504
G1 F1401.666
G1 X11.569 Y-5.039 E1.96096
G1 F1505.455
G1 X11.578 Y-5.039 E1.96165
G1 F1625.850
G1 X11.586 Y-5.039 E1.96229
G1 F1767.175
G1 X11.595 Y-5.039 E1.96288
G1 F1935.407
G1 X11.604 Y-5.039 E1.96341
G1 F2139.041
G1 X11.612 Y-5.039 E1.96390
G1 F2390.565
G1 X11.621 Y-5.039 E1.96433
G1 F2400.000
G1 X11.630 Y-5.039 E1.96471
G1 X11.639 Y-5.039 E1.96504
G1 X11.648 Y-5.039 E1.96533
G1 X11.656 Y-5.039 E1.96556
G1 X11.665 Y-5.039 E1.96573
G1 X11.674 Y-5.039 E1.96586
G1 X11.691 Y-5.039 E1.96602
G1 X11.700 Y-5.039 E1.96605
G92 E0
G1 E-8.00000 F4800.00000
G1 X11.700 Y-1.139 F12000.000
G1 E0.00000 F1800.00000
G1 F2400.000
G1 X11.682 Y-1.139 E0.00007
G1 X11.674 Y-1.139 E0.00015
