; generated by Slic3r++ 2.2.47 on 2020-03-04 at 15:19:46 UTC

; 

; external perimeters extrusion width = 0.42mm
; perimeters extrusion width = 0.45mm
; infill extrusion width = 0.45mm
; solid infill extrusion width = 0.45mm
; top infill extrusion width = 0.42mm
; first layer extrusion width = 0.60mm

M201 X9000 Y9000 Z9000 E10000 ; sets maximum accelerations, mm/sec^2
M203 X500 Y500 Z500 E100 ; sets maximum feedrates, mm/sec
M204 P1500 R1500 T1500 ; sets acceleration (P, T) and retract acceleration (R), mm/sec^2
M205 X20.00 Y20.00 Z20.00 E5.00 ; sets the jerk limits, mm/sec
M205 S0 T0 ; sets the minimum extruding and travel feed rate, mm/sec
M107
M104 S190 ; set temperature
G28 ; home all axes
G1 Z5 F5000 ; lift nozzle
M106 ; fan on
M109 S190 ; set temperature and wait for it to be reached
G21 ; set units to millimeters
G90 ; use absolute coordinates
M82 ; use absolute distances for extrusion
G92 E0
; Filament gcode
M106 S89.25
G1 Z0.300 F12000.000
G1 E-8.00000 F4800.00000
G1 X-1.705 Y37.421 F12000.000
G1 E0.00000 F1800.00000
G1 F1866.997
G1 X-3.240 Y37.351 E0.09752
G1 X-5.267 Y37.127 E0.22696
G1 X-7.532 Y36.740 E0.37274
G1 X-10.416 Y36.035 E0.56121
G1 X-12.326 Y35.442 E0.68815
G1 X-14.531 Y34.611 E0.83770
G1 X-16.636 Y33.666 E0.98411
G1 X-18.418 Y32.737 E1.11166
G1 X-20.970 Y31.197 E1.30078
G1 X-22.832 Y29.887 E1.44530
G1 X-24.444 Y28.605 E1.57600
G1 X-26.800 Y26.458 E1.77830
G1 X-28.218 Y24.979 E1.90837
G1 X-29.531 Y23.444 E2.03655
G1 X-31.333 Y21.046 E2.22693
G1 X-32.529 Y19.202 E2.36642
G1 X-33.563 Y17.387 E2.49901
G1 X-34.974 Y14.451 E2.70570
G1 X-35.726 Y12.577 E2.83388
G1 X-36.463 Y10.370 E2.98155
G1 X-37.063 Y8.122 E3.12921
G1 X-37.465 Y6.163 E3.25614
G1 X-37.904 Y2.966 E3.46095
G1 X-38.043 Y0.881 E3.59353
G1 X-38.063 Y-1.079 E3.71794
G1 X-37.882 Y-4.341 E3.92526
G1 X-37.621 Y-6.413 E4.05785
G1 X-37.211 Y-8.623 E4.20048
G1 X-36.458 Y-11.527 E4.39086
G1 X-35.830 Y-13.446 E4.51904
G1 X-35.008 Y-15.538 E4.66168
G1 X-33.718 Y-18.246 E4.85205
G1 X-32.737 Y-20.012 E4.98023
G1 X-31.500 Y-21.959 E5.12664
G1 X-29.752 Y-24.323 E5.31324
G1 X-28.467 Y-25.856 E5.44017
G1 X-26.884 Y-27.534 E5.58658
G1 X-24.713 Y-29.531 E5.77380
G1 X-23.161 Y-30.793 E5.90073
G1 X-21.264 Y-32.157 E6.04902
G1 X-19.304 Y-33.392 E6.19606
G1 X-17.543 Y-34.361 E6.32361
G1 X-14.849 Y-35.634 E6.51273
G1 X-12.726 Y-36.459 E6.65725
G1 X-10.814 Y-37.077 E6.78481
G1 X-7.927 Y-37.814 E6.97392
G1 X-5.696 Y-38.220 E7.11782
G1 X-3.652 Y-38.470 E7.24852
G1 X-0.469 Y-38.644 E7.45082
G1 X1.580 Y-38.616 E7.58089
G1 X3.595 Y-38.476 E7.70907
G1 X6.568 Y-38.077 E7.89944
G1 X8.722 Y-37.636 E8.03894
G1 X10.741 Y-37.100 E8.17152
G1 X13.831 Y-36.043 E8.37884
G1 X15.686 Y-35.267 E8.50640
G1 X17.775 Y-34.244 E8.65406
G1 X19.799 Y-33.095 E8.80173
G1 X21.485 Y-32.002 E8.92928
G1 X24.071 Y-30.071 E9.13409
G1 X25.654 Y-28.708 E9.26667
G1 X27.093 Y-27.319 E9.39360
G1 X29.267 Y-24.921 E9.59904
G1 X30.549 Y-23.297 E9.73036
G1 X31.842 Y-21.446 E9.87363
G1 X33.383 Y-18.872 E10.06400
G1 X34.305 Y-17.087 E10.19156
G1 X35.227 Y-15.015 E10.33545
G1 X36.247 Y-12.205 E10.52519
G1 X36.815 Y-10.277 E10.65275
G1 X37.336 Y-8.020 E10.79979
G1 X37.722 Y-5.715 E10.94808
G1 X37.936 Y-3.727 E11.07500
G1 X38.070 Y-0.780 E11.26223
G1 X38.013 Y1.527 E11.40865
G1 X37.845 Y3.520 E11.53557
G1 X37.421 Y6.429 E11.72217
G1 X36.927 Y8.682 E11.86858
G1 X36.380 Y10.627 E11.99676
G1 X35.389 Y13.458 E12.18713
G1 X34.499 Y15.522 E12.32977
G1 X33.593 Y17.327 E12.45795
G1 X32.082 Y19.918 E12.64833
G1 X30.817 Y21.776 E12.79096
G1 X29.549 Y23.423 E12.92292
G1 X27.381 Y25.867 E13.13024
G1 X25.936 Y27.292 E13.25905
G1 X24.185 Y28.824 E13.40672
G1 X22.344 Y30.247 E13.55438
G1 X20.691 Y31.374 E13.68131
G1 X17.912 Y33.014 E13.88611
G1 X16.043 Y33.947 E14.01870
G1 X14.225 Y34.731 E14.14437
G1 X11.165 Y35.816 E14.35044
G1 X9.152 Y36.376 E14.48301
G1 X6.975 Y36.848 E14.62440
G1 X4.016 Y37.277 E14.81414
G1 X2.003 Y37.440 E14.94233
G1 X-0.155 Y37.492 E15.07931
G1 X-1.645 Y37.424 E15.17401
G1 X-1.621 Y36.889 F12000.000
G1 F1866.997
G1 X-3.192 Y36.818 E15.27382
G1 X-5.192 Y36.596 E15.40150
G1 X-7.434 Y36.214 E15.54588
G1 X-10.260 Y35.523 E15.73053
G1 X-12.152 Y34.936 E15.85620
G1 X-14.326 Y34.116 E16.00366
G1 X-16.401 Y33.184 E16.14803
G1 X-18.159 Y32.268 E16.27386
G1 X-20.673 Y30.751 E16.46022
G1 X-22.510 Y29.459 E16.60273
G1 X-24.107 Y28.189 E16.73227
G1 X-26.421 Y26.080 E16.93097
G1 X-27.820 Y24.620 E17.05927
G1 X-29.122 Y23.099 E17.18634
G1 X-30.886 Y20.751 E17.37270
G1 X-32.071 Y18.925 E17.51089
G1 X-33.091 Y17.134 E17.64166
G1 X-34.481 Y14.242 E17.84530
G1 X-35.223 Y12.393 E17.97175
G1 X-35.949 Y10.217 E18.11735
G1 X-36.544 Y7.991 E18.26357
G1 X-36.939 Y6.058 E18.38879
G1 X-37.370 Y2.918 E18.58996
G1 X-37.508 Y0.862 E18.72073
G1 X-37.528 Y-1.082 E18.84409
G1 X-37.349 Y-4.285 E19.04773
G1 X-37.092 Y-6.330 E19.17850
G1 X-36.687 Y-8.509 E19.31916
G1 X-35.949 Y-11.361 E19.50614
G1 X-35.326 Y-13.264 E19.63320
G1 X-34.516 Y-15.327 E19.77386
G1 X-33.249 Y-17.987 E19.96084
G1 X-32.282 Y-19.729 E20.08729
G1 X-31.057 Y-21.657 E20.23227
G1 X-29.341 Y-23.980 E20.41554
G1 X-28.068 Y-25.499 E20.54137
G1 X-26.507 Y-27.154 E20.68574
G1 X-24.373 Y-29.117 E20.86978
G1 X-22.837 Y-30.367 E20.99545
G1 X-20.966 Y-31.712 E21.14167
G1 X-19.033 Y-32.929 E21.28666
G1 X-17.288 Y-33.890 E21.41311
G1 X-14.641 Y-35.140 E21.59885
G1 X-12.548 Y-35.953 E21.74136
G1 X-10.652 Y-36.566 E21.86781
G1 X-7.817 Y-37.290 E22.05355
G1 X-5.617 Y-37.690 E22.19544
G1 X-3.591 Y-37.938 E22.32498
G1 X-0.474 Y-38.108 E22.52307
G1 X1.557 Y-38.081 E22.65199
G1 X3.554 Y-37.942 E22.77906
G1 X6.464 Y-37.552 E22.96542
G1 X8.598 Y-37.115 E23.10360
G1 X10.589 Y-36.586 E23.23438
G1 X13.634 Y-35.545 E23.43864
G1 X15.464 Y-34.780 E23.56446
G1 X17.533 Y-33.767 E23.71068
G1 X19.528 Y-32.633 E23.85629
G1 X21.191 Y-31.554 E23.98212
G1 X23.731 Y-29.658 E24.18329
G1 X25.292 Y-28.313 E24.31406
G1 X26.719 Y-26.936 E24.43989
G1 X28.854 Y-24.580 E24.64168
G1 X30.124 Y-22.970 E24.77184
G1 X31.399 Y-21.145 E24.91311
G1 X32.907 Y-18.626 E25.09947
G1 X33.822 Y-16.856 E25.22592
G1 X34.731 Y-14.813 E25.36782
G1 X35.734 Y-12.053 E25.55417
G1 X36.296 Y-10.142 E25.68062
G1 X36.811 Y-7.916 E25.82561
G1 X37.193 Y-5.634 E25.97245
G1 X37.403 Y-3.673 E26.09766
G1 X37.535 Y-0.778 E26.28154
G1 X37.477 Y1.506 E26.42653
G1 X37.312 Y3.472 E26.55174
G1 X36.894 Y6.329 E26.73500
G1 X36.406 Y8.561 E26.87999
G1 X35.866 Y10.478 E27.00644
G1 X34.892 Y13.259 E27.19342
G1 X34.010 Y15.303 E27.33470
G1 X33.116 Y17.084 E27.46114
G1 X31.632 Y19.628 E27.64812
G1 X30.384 Y21.460 E27.78878
G1 X29.127 Y23.093 E27.91956
G1 X27.005 Y25.486 E28.12258
G1 X25.572 Y26.899 E28.25025
G1 X23.846 Y28.410 E28.39586
G1 X22.022 Y29.818 E28.54208
G1 X20.392 Y30.929 E28.66730
G1 X17.662 Y32.540 E28.86846
G1 X15.819 Y33.461 E28.99924
G1 X14.016 Y34.238 E29.12383
G1 X11.010 Y35.304 E29.32624
G1 X9.025 Y35.856 E29.45701
G1 X6.878 Y36.321 E29.59644
G1 X3.962 Y36.744 E29.78341
G1 X1.976 Y36.905 E29.90986
G1 X-0.152 Y36.956 E30.04496
G1 X-1.561 Y36.892 E30.13449
G92 E0
G1 E-8.00000 F4800.00000
G1 X-1.367 Y-16.044 F12000.000
G1 E0.00000 F1800.00000
G1 F1866.997
G1 X-1.364 Y-13.402 E0.16771
G1 X-2.396 Y-13.252 E0.23386
G1 X-4.902 Y-12.659 E0.39730
G1 X-4.711 Y-12.036 E0.43866
G1 X-5.085 Y-11.879 E0.46436
G1 X-6.042 Y-11.393 E0.53248
G1 X-6.640 Y-11.037 E0.57665
G1 X-7.137 Y-10.702 E0.61473
G1 X-7.615 Y-10.345 E0.65256
G1 X-8.075 Y-9.966 E0.69039
G1 X-8.517 Y-9.566 E0.72823
G1 X-8.949 Y-9.133 E0.76702
G1 X-9.692 Y-8.277 E0.83900
G1 X-10.358 Y-7.346 E0.91165
G1 X-10.720 Y-6.752 E0.95574
G1 X-11.243 Y-5.731 E1.02856
G1 X-11.666 Y-4.669 E1.10116
G1 X-11.942 Y-3.745 E1.16236
G1 X-15.038 Y-4.202 E1.36097
G1 X-15.292 Y-2.096 E1.49557
G1 X-15.342 Y-1.418 E1.53875
G1 X-15.362 Y-0.739 E1.58183
G1 X-15.352 Y-0.060 E1.62492
G1 X-15.312 Y0.617 E1.66800
G1 X-15.242 Y1.292 E1.71108
G1 X-15.142 Y1.964 E1.75416
G1 X-15.013 Y2.630 E1.79725
G1 X-14.854 Y3.290 E1.84033
G1 X-14.666 Y3.943 E1.88341
G1 X-14.450 Y4.586 E1.92649
G1 X-14.206 Y5.219 E1.96957
G1 X-13.933 Y5.841 E2.01266
G1 X-13.634 Y6.451 E2.05574
G1 X-12.648 Y8.251 E2.18599
G1 X-10.381 Y6.939 E2.35222
G1 X-9.735 Y7.758 E2.41839
G1 X-7.969 Y9.632 E2.58181
G1 X-7.523 Y9.153 E2.62330
G1 X-7.205 Y9.397 E2.64873
G1 X-6.303 Y9.986 E2.71711
G1 X-5.682 Y10.332 E2.76221
G1 X-4.705 Y10.785 E2.83060
G1 X-4.040 Y11.038 E2.87570
G1 X-3.008 Y11.345 E2.94409
G1 X-2.313 Y11.499 E2.98923
G1 X-1.218 Y11.657 E3.05945
G1 X-0.603 Y11.702 E3.09856
G1 X-0.000 Y11.717 E3.13686
G1 X0.582 Y11.703 E3.17384
G1 X1.200 Y11.658 E3.21315
G1 X1.793 Y11.586 E3.25107
G1 X2.900 Y11.372 E3.32265
G1 X3.271 Y11.271 E3.34700
G1 X4.423 Y14.181 E3.54566
G1 X6.374 Y13.348 E3.68027
G1 X6.986 Y13.052 E3.72345
G1 X7.584 Y12.730 E3.76654
G1 X8.167 Y12.382 E3.80962
G1 X8.734 Y12.009 E3.85271
G1 X9.283 Y11.610 E3.89579
G1 X9.815 Y11.188 E3.93888
G1 X10.328 Y10.743 E3.98197
G1 X10.820 Y10.275 E4.02505
G1 X11.291 Y9.787 E4.06814
G1 X11.740 Y9.278 E4.11122
G1 X12.166 Y8.749 E4.15431
G1 X12.569 Y8.203 E4.19739
G1 X12.947 Y7.639 E4.24048
G1 X14.013 Y5.885 E4.37073
G1 X11.736 Y4.573 E4.53752
G1 X11.911 Y4.191 E4.56418
G1 X12.303 Y3.076 E4.63919
G1 X12.836 Y1.135 E4.76696
G1 X12.232 Y0.995 E4.80628
G1 X12.282 Y0.614 E4.83067
G1 X12.328 Y0.016 E4.86873
G1 X12.345 Y-0.594 E4.90746
G1 X12.300 Y-1.666 E4.97553
G1 X12.223 Y-2.357 E5.01968
G1 X12.125 Y-2.948 E5.05771
G1 X11.996 Y-3.544 E5.09641
G1 X11.697 Y-4.574 E5.16448
G1 X11.457 Y-5.227 E5.20862
G1 X10.990 Y-6.251 E5.28005
G1 X10.695 Y-6.794 E5.31930
G1 X10.392 Y-7.292 E5.35626
G1 X10.036 Y-7.818 E5.39658
G1 X9.338 Y-8.704 E5.46815
G1 X8.937 Y-9.144 E5.50592
G1 X8.490 Y-9.591 E5.54606
G1 X7.646 Y-10.321 E5.61689
G1 X7.136 Y-10.688 E5.65676
G1 X8.631 Y-13.453 E5.85628
G1 X6.519 Y-14.538 E6.00694
G1 X5.892 Y-14.815 E6.05049
G1 X5.286 Y-15.051 E6.09171
G1 X6.402 Y-19.150 E6.36135
G1 X3.235 Y-19.953 E6.56869
G1 X2.188 Y-15.823 E6.83910
G1 X1.790 Y-15.885 E6.86466
G1 X1.175 Y-15.945 E6.90386
G1 X-1.307 Y-16.042 E7.06148
G1 X-0.830 Y-15.487 F12000.000
G1 F1866.997
G1 X-0.828 Y-12.904 E7.22545
G1 X-1.128 Y-12.890 E7.24447
G1 X-1.707 Y-12.822 E7.28152
G1 X-2.291 Y-12.727 E7.31902
G1 X-4.223 Y-12.269 E7.44503
G1 X-4.054 Y-11.717 E7.48170
G1 X-4.859 Y-11.392 E7.53681
G1 X-5.783 Y-10.924 E7.60256
G1 X-6.353 Y-10.584 E7.64464
G1 X-6.828 Y-10.264 E7.68098
G1 X-7.285 Y-9.924 E7.71717
G1 X-7.725 Y-9.561 E7.75336
G1 X-8.147 Y-9.178 E7.78954
G1 X-8.557 Y-8.768 E7.82632
G1 X-9.271 Y-7.945 E7.89550
G1 X-9.911 Y-7.050 E7.96529
G1 X-10.252 Y-6.491 E8.00688
G1 X-10.755 Y-5.510 E8.07685
G1 X-11.162 Y-4.488 E8.14664
G1 X-11.333 Y-3.951 E8.18242
G1 X-11.548 Y-3.145 E8.23535
G1 X-14.572 Y-3.592 E8.42938
G1 X-14.759 Y-2.045 E8.52828
G1 X-14.807 Y-1.390 E8.56992
G1 X-14.826 Y-0.735 E8.61150
G1 X-14.816 Y-0.080 E8.65308
G1 X-14.778 Y0.574 E8.69466
G1 X-14.710 Y1.225 E8.73624
G1 X-14.614 Y1.873 E8.77782
G1 X-14.489 Y2.517 E8.81940
G1 X-14.336 Y3.154 E8.86098
G1 X-14.155 Y3.783 E8.90256
G1 X-13.946 Y4.404 E8.94414
G1 X-13.710 Y5.016 E8.98572
G1 X-13.447 Y5.616 E9.02729
G1 X-13.158 Y6.204 E9.06887
G1 X-12.442 Y7.512 E9.16357
G1 X-10.218 Y6.226 E9.32664
G1 X-10.056 Y6.478 E9.34567
G1 X-9.708 Y6.947 E9.38272
G1 X-9.333 Y7.404 E9.42023
G1 X-7.971 Y8.849 E9.54622
G1 X-7.583 Y8.432 E9.58234
G1 X-6.896 Y8.960 E9.63733
G1 X-6.026 Y9.527 E9.70324
G1 X-5.439 Y9.855 E9.74588
G1 X-4.497 Y10.291 E9.81179
G1 X-3.869 Y10.530 E9.85444
G1 X-2.873 Y10.826 E9.92035
G1 X-2.217 Y10.971 E9.96302
G1 X-1.160 Y11.124 E10.03079
G1 X-0.577 Y11.167 E10.06787
G1 X0.000 Y11.181 E10.10452
G1 X0.557 Y11.168 E10.13985
G1 X1.149 Y11.125 E10.17751
G1 X1.710 Y11.057 E10.21341
G1 X2.779 Y10.849 E10.28253
G1 X3.593 Y10.629 E10.33602
G1 X4.719 Y13.473 E10.53015
G1 X6.152 Y12.861 E10.62906
G1 X6.743 Y12.575 E10.67070
G1 X7.319 Y12.264 E10.71228
G1 X7.882 Y11.928 E10.75387
G1 X8.429 Y11.568 E10.79545
G1 X8.960 Y11.183 E10.83703
G1 X9.473 Y10.776 E10.87862
G1 X9.967 Y10.346 E10.92020
G1 X10.443 Y9.895 E10.96178
G1 X10.897 Y9.424 E11.00337
G1 X11.331 Y8.932 E11.04495
G1 X11.742 Y8.422 E11.08653
G1 X12.131 Y7.895 E11.12812
G1 X12.495 Y7.350 E11.16970
G1 X13.270 Y6.075 E11.26440
G1 X11.045 Y4.793 E11.42740
G1 X11.414 Y3.990 E11.48349
G1 X11.791 Y2.916 E11.55573
G1 X12.172 Y1.531 E11.64689
G1 X11.638 Y1.407 E11.68167
G1 X11.749 Y0.559 E11.73600
G1 X11.793 Y-0.012 E11.77232
G1 X11.809 Y-0.590 E11.80905
G1 X11.766 Y-1.625 E11.87474
G1 X11.692 Y-2.283 E11.91680
G1 X11.598 Y-2.847 E11.95310
G1 X11.476 Y-3.413 E11.98980
G1 X11.188 Y-4.407 E12.05550
G1 X10.961 Y-5.023 E12.09717
G1 X10.511 Y-6.012 E12.16613
G1 X10.230 Y-6.527 E12.20335
G1 X9.941 Y-7.002 E12.23865
G1 X9.603 Y-7.501 E12.27692
G1 X8.929 Y-8.357 E12.34607
G1 X8.550 Y-8.774 E12.38183
G1 X8.125 Y-9.198 E12.41993
G1 X7.314 Y-9.900 E12.48800
G1 X6.440 Y-10.528 E12.55626
G1 X7.900 Y-13.226 E12.75099
G1 X6.289 Y-14.054 E12.86593
G1 X5.686 Y-14.320 E12.90773
G1 X4.638 Y-14.707 E12.97864
G1 X5.742 Y-18.765 E13.24557
G1 X3.623 Y-19.303 E13.38433
G1 X2.587 Y-15.219 E13.65168
G1 X1.723 Y-15.354 E13.70720
G1 X1.139 Y-15.410 E13.74444
G1 X-0.770 Y-15.485 E13.86570
G1 X-0.294 Y-14.930 F12000.000
G1 F1866.997
G1 X-0.292 Y-12.392 E14.02679
G1 X-1.084 Y-12.356 E14.07713
G1 X-1.633 Y-12.292 E14.11218
G1 X-2.185 Y-12.201 E14.14771
G1 X-3.544 Y-11.880 E14.23628
G1 X-3.393 Y-11.388 E14.26891
G1 X-4.129 Y-11.119 E14.31864
G1 X-4.634 Y-10.906 E14.35339
G1 X-5.525 Y-10.455 E14.41677
G1 X-6.065 Y-10.132 E14.45676
G1 X-6.518 Y-9.827 E14.49136
G1 X-6.954 Y-9.502 E14.52590
G1 X-7.374 Y-9.156 E14.56045
G1 X-7.777 Y-8.790 E14.59500
G1 X-8.165 Y-8.403 E14.62976
G1 X-8.850 Y-7.613 E14.69614
G1 X-9.464 Y-6.755 E14.76307
G1 X-9.784 Y-6.229 E14.80216
G1 X-10.267 Y-5.288 E14.86928
G1 X-10.657 Y-4.307 E14.93626
G1 X-10.819 Y-3.801 E14.97001
G1 X-10.965 Y-3.251 E15.00612
G1 X-11.102 Y-2.538 E15.05220
G1 X-14.106 Y-2.981 E15.24494
G1 X-14.225 Y-1.993 E15.30814
G1 X-14.272 Y-1.363 E15.34824
G1 X-14.290 Y-0.731 E15.38831
G1 X-14.281 Y-0.100 E15.42839
G1 X-14.244 Y0.530 E15.46847
G1 X-14.178 Y1.158 E15.50855
G1 X-14.086 Y1.783 E15.54862
G1 X-13.965 Y2.403 E15.58870
G1 X-13.818 Y3.017 E15.62878
G1 X-13.643 Y3.624 E15.66885
G1 X-13.442 Y4.222 E15.70893
G1 X-13.215 Y4.812 E15.74901
G1 X-12.961 Y5.390 E15.78909
G1 X-12.683 Y5.957 E15.82916
G1 X-12.235 Y6.774 E15.88831
G1 X-10.043 Y5.506 E16.04908
G1 X-9.615 Y6.174 E16.09942
G1 X-9.285 Y6.617 E16.13448
G1 X-8.930 Y7.050 E16.17001
G1 X-7.973 Y8.066 E16.25857
G1 X-7.610 Y7.676 E16.29233
G1 X-7.088 Y8.137 E16.33652
G1 X-6.586 Y8.522 E16.37671
G1 X-5.749 Y9.069 E16.44015
G1 X-5.196 Y9.377 E16.48033
G1 X-4.289 Y9.797 E16.54377
G1 X-3.697 Y10.022 E16.58396
G1 X-2.739 Y10.307 E16.64740
G1 X-2.120 Y10.444 E16.68759
G1 X-1.102 Y10.591 E16.75290
G1 X-0.551 Y10.632 E16.78795
G1 X0.000 Y10.645 E16.82295
G1 X0.531 Y10.633 E16.85664
G1 X1.097 Y10.592 E16.89265
G1 X1.627 Y10.527 E16.92652
G1 X2.658 Y10.327 E16.99319
G1 X3.239 Y10.170 E17.03140
G1 X3.896 Y9.941 E17.07558
G1 X5.014 Y12.764 E17.26830
G1 X5.930 Y12.373 E17.33151
G1 X6.499 Y12.098 E17.37161
G1 X7.055 Y11.798 E17.41169
G1 X7.597 Y11.475 E17.45177
G1 X8.124 Y11.127 E17.49185
G1 X8.636 Y10.757 E17.53193
G1 X9.130 Y10.364 E17.57201
G1 X9.607 Y9.950 E17.61209
G1 X10.065 Y9.515 E17.65217
G1 X10.504 Y9.060 E17.69225
G1 X10.921 Y8.587 E17.73233
G1 X11.318 Y8.095 E17.77241
G1 X11.692 Y7.587 E17.81249
G1 X12.044 Y7.062 E17.85257
G1 X12.528 Y6.265 E17.91172
G1 X10.339 Y5.004 E18.07206
G1 X10.460 Y4.783 E18.08806
G1 X10.917 Y3.789 E18.15752
G1 X11.280 Y2.756 E18.22697
G1 X11.507 Y1.927 E18.28154
G1 X10.997 Y1.809 E18.31481
G1 X11.134 Y1.128 E18.35894
G1 X11.216 Y0.503 E18.39889
G1 X11.258 Y-0.040 E18.43347
G1 X11.273 Y-0.587 E18.46819
G1 X11.232 Y-1.584 E18.53151
G1 X11.162 Y-2.209 E18.57147
G1 X11.072 Y-2.747 E18.60604
G1 X10.956 Y-3.281 E18.64075
G1 X10.679 Y-4.239 E18.70408
G1 X10.465 Y-4.819 E18.74328
G1 X10.031 Y-5.772 E18.80976
G1 X9.766 Y-6.259 E18.84495
G1 X9.490 Y-6.713 E18.87861
G1 X9.170 Y-7.185 E18.91483
G1 X8.520 Y-8.011 E18.98155
G1 X8.162 Y-8.404 E19.01529
G1 X7.760 Y-8.806 E19.05136
G1 X6.982 Y-9.479 E19.11668
G1 X6.195 Y-10.044 E19.17817
