; generated by PrusaSlicer 2.2.0-alpha2+ on 2020-01-29 at 08:39:03 UTC

; 

; external perimeters extrusion width = 0.45mm
; perimeters extrusion width = 0.45mm
; infill extrusion width = 0.45mm
; solid infill extrusion width = 0.45mm
; top infill extrusion width = 0.40mm
; first layer extrusion width = 0.52mm

; external perimeters extrusion width = 0.45mm
; perimeters extrusion width = 0.45mm
; infill extrusion width = 0.45mm
; solid infill extrusion width = 0.45mm
; top infill extrusion width = 0.40mm
; first layer extrusion width = 0.52mm

; external perimeters extrusion width = 0.45mm
; perimeters extrusion width = 0.45mm
; infill extrusion width = 0.45mm
; solid infill extrusion width = 0.45mm
; top infill extrusion width = 0.40mm
; first layer extrusion width = 0.52mm

; external perimeters extrusion width = 0.45mm
; perimeters extrusion width = 0.45mm
; infill extrusion width = 0.45mm
; solid infill extrusion width = 0.45mm
; top infill extrusion width = 0.40mm
; first layer extrusion width = 0.52mm

M201 X9000 Y9000 Z9000 E10000 ; sets maximum accelerations, mm/sec^2
M203 X500 Y500 Z500 E45 ; sets maximum feedrates, mm/sec
M204 P1500 R1500 T1500 ; sets acceleration (P, T) and retract acceleration (R), mm/sec^2
M205 X20.00 Y20.00 Z20.00 E5.00 ; sets the jerk limits, mm/sec
M205 S0 T0 ; sets the minimum extruding and travel feed rate, mm/sec
M107
M104 S200 ; set temperature
G28 ; home all axes
G1 Z5 F5000 ; lift nozzle
;M106 ; fan on
M109 S200 ; set temperature and wait for it to be reached
G21 ; set units to millimeters
G90 ; use absolute coordinates
M82 ; use absolute distances for extrusion
G92 E0
; Filament gcode
G1 E-8.00000 F4800.00000
G92 E0
G1 Z0.350 F12000.000
G1 X-45.438 Y0.009
G1 E8.00000 F1800.00000
G1 F2400.000
G1 X-45.448 Y-50.821 E11.32757
G1 X-45.316 Y-52.611 E11.44511
G1 X-44.979 Y-54.365 E11.56202
G1 X-44.442 Y-56.068 E11.67893
G1 X-43.707 Y-57.706 E11.79647
G1 X-42.738 Y-59.321 E11.91972
G1 X-41.574 Y-60.812 E12.04360
G1 X-40.236 Y-62.151 E12.16749
G1 X-38.744 Y-63.315 E12.29138
G1 X-37.121 Y-64.289 E12.41526
G1 X-35.401 Y-65.053 E12.53852
G1 X-33.590 Y-65.605 E12.66240
G1 X-31.736 Y-65.930 E12.78565
G1 X-30.021 Y-66.028 E12.89812
G1 X30.010 Y-66.028 E16.82801
G1 X31.416 Y-65.963 E16.92015
G1 X32.810 Y-65.770 E17.01230
G1 X34.181 Y-65.451 E17.10445
G1 X35.517 Y-65.009 E17.19659
G1 X36.817 Y-64.443 E17.28937
G1 X38.050 Y-63.765 E17.38152
G1 X39.217 Y-62.977 E17.47367
G1 X40.307 Y-62.087 E17.56581
G1 X41.312 Y-61.101 E17.65796
G1 X42.223 Y-60.028 E17.75011
G1 X43.032 Y-58.876 E17.84225
G1 X43.733 Y-57.656 E17.93440
G1 X44.320 Y-56.377 E18.02654
G1 X44.789 Y-55.049 E18.11869
G1 X45.134 Y-53.685 E18.21084
G1 X45.354 Y-52.295 E18.30298
G1 X45.450 Y-50.589 E18.41481
G1 X45.448 Y49.655 E24.97728
G1 X45.318 Y51.436 E25.09419
G1 X44.981 Y53.200 E25.21173
G1 X44.442 Y54.912 E25.32927
G1 X43.707 Y56.551 E25.44681
G1 X42.705 Y58.213 E25.57387
G1 X41.496 Y59.744 E25.70156
G1 X40.104 Y61.110 E25.82925
G1 X38.551 Y62.290 E25.95695
G1 X36.861 Y63.265 E26.08464
G1 X35.063 Y64.019 E26.21233
G1 X33.183 Y64.541 E26.34002
G1 X31.253 Y64.821 E26.46772
G1 X-30.379 Y64.867 E30.50241
G1 X-32.130 Y64.725 E30.61741
G1 X-33.853 Y64.384 E30.73241
G1 X-35.526 Y63.850 E30.84741
G1 X-37.129 Y63.129 E30.96242
G1 X-38.839 Y62.094 E31.09328
G1 X-40.401 Y60.847 E31.22415
G1 X-41.789 Y59.408 E31.35501
G1 X-42.985 Y57.794 E31.48651
G1 X-43.961 Y56.039 E31.61801
G1 X-44.699 Y54.181 E31.74888
G1 X-45.190 Y52.243 E31.87974
G1 X-45.427 Y50.258 E32.01061
G1 X-45.438 Y0.069 E35.29622
G1 E27.29622 F4800.00000
G92 E0
G1 X-17.038 Y39.907 F12000.000
G1 E8.00000 F1800.00000
G1 F2400.000
G1 X-16.692 Y40.129 E8.02686
G1 X-16.085 Y40.724 E8.08253
G1 X-15.609 Y41.432 E8.13838
G1 X-15.272 Y42.258 E8.19675
G1 X-15.121 Y43.126 E8.25443
G1 X-15.144 Y43.964 E8.30930
G1 X-15.342 Y44.805 E8.36589
G1 X-15.708 Y45.589 E8.42251
G1 X-16.227 Y46.281 E8.47913
G1 X-16.875 Y46.853 E8.53575
G1 X-17.627 Y47.281 E8.59237
G1 X-18.450 Y47.546 E8.64899
G1 X-19.312 Y47.638 E8.70568
G1 X-20.198 Y47.546 E8.76404
G1 X-21.023 Y47.281 E8.82074
G1 X-21.775 Y46.853 E8.87736
G1 X-22.423 Y46.281 E8.93398
G1 X-22.942 Y45.589 E8.99061
G1 X-23.308 Y44.805 E9.04723
G1 X-23.506 Y43.964 E9.10381
G1 X-23.529 Y43.126 E9.15869
G1 X-23.378 Y42.258 E9.21636
G1 X-23.041 Y41.432 E9.27474
G1 X-22.565 Y40.724 E9.33059
G1 X-21.958 Y40.129 E9.38626
G1 X-21.612 Y39.907 E9.41312
G1 X-21.612 Y12.863 E11.18359
G1 X-21.541 Y12.343 E11.21789
G1 X-21.330 Y11.830 E11.25422
G1 X-20.972 Y11.356 E11.29313
G1 X-20.525 Y11.011 E11.33011
G1 X-20.018 Y10.794 E11.36622
G1 X-19.439 Y10.708 E11.40450
G1 X-19.088 Y10.721 E11.42748
G1 X-18.628 Y10.795 E11.45803
G1 X-18.125 Y11.011 E11.49382
G1 X-17.678 Y11.356 E11.53080
G1 X-17.320 Y11.830 E11.56971
G1 X-17.109 Y12.343 E11.60604
G1 X-17.038 Y12.863 E11.64034
G1 X-17.038 Y39.847 E13.40689
G1 X-17.488 Y40.153 F12000.000
G1 F2400.000
G1 X-16.974 Y40.483 E13.44681
G1 X-16.433 Y41.014 E13.49645
G1 X-16.008 Y41.645 E13.54627
G1 X-15.707 Y42.383 E13.59845
G1 X-15.572 Y43.159 E13.65000
G1 X-15.592 Y43.905 E13.69890
G1 X-15.770 Y44.657 E13.74943
G1 X-16.096 Y45.356 E13.79998
G1 X-16.559 Y45.974 E13.85053
G1 X-17.138 Y46.485 E13.90107
G1 X-17.809 Y46.867 E13.95162
G1 X-18.544 Y47.104 E14.00216
G1 X-19.312 Y47.185 E14.05273
G1 X-20.105 Y47.104 E14.10492
G1 X-20.841 Y46.867 E14.15549
G1 X-21.512 Y46.485 E14.20604
G1 X-22.091 Y45.974 E14.25658
G1 X-22.554 Y45.356 E14.30713
G1 X-22.880 Y44.657 E14.35768
G1 X-23.058 Y43.905 E14.40821
G1 X-23.078 Y43.159 E14.45711
G1 X-22.943 Y42.383 E14.50866
G1 X-22.642 Y41.645 E14.56084
G1 X-22.217 Y41.014 E14.61066
G1 X-21.676 Y40.483 E14.66030
G1 X-21.162 Y40.153 E14.70022
G1 X-21.162 Y12.893 E16.48479
G1 X-21.103 Y12.461 E16.51332
G1 X-20.936 Y12.055 E16.54206
G1 X-20.649 Y11.675 E16.57325
G1 X-20.295 Y11.402 E16.60253
G1 X-19.894 Y11.230 E16.63108
G1 X-19.414 Y11.159 E16.66282
G1 X-19.133 Y11.169 E16.68127
G1 X-18.754 Y11.231 E16.70638
G1 X-18.355 Y11.402 E16.73481
G1 X-18.001 Y11.675 E16.76410
G1 X-17.714 Y12.055 E16.79528
G1 X-17.547 Y12.461 E16.82403
G1 X-17.488 Y12.893 E16.85255
G1 X-17.488 Y40.093 E18.63320
G1 X-17.092 Y40.096 F12000.000
G1 E10.63320 F4800.00000
G92 E0
G1 X-14.000 Y38.515 F12000.000
G1 X-11.720 Y45.114
G1 X-9.287 Y45.912
G1 X-7.613 Y46.247
G1 X-5.446 Y46.419
G1 X5.289 Y46.422
G1 X8.901 Y46.004
G1 X11.720 Y45.114
G1 X14.000 Y38.515
G1 X17.038 Y39.907
G1 E8.00000 F1800.00000
G1 F2400.000
G1 X17.038 Y12.863 E9.77047
G1 X17.109 Y12.343 E9.80478
G1 X17.320 Y11.830 E9.84111
G1 X17.678 Y11.356 E9.88002
G1 X18.125 Y11.011 E9.91699
G1 X18.632 Y10.794 E9.95311
G1 X19.211 Y10.708 E9.99138
G1 X19.562 Y10.721 E10.01437
G1 X20.022 Y10.795 E10.04491
G1 X20.525 Y11.011 E10.08071
G1 X20.972 Y11.356 E10.11768
G1 X21.330 Y11.830 E10.15660
G1 X21.541 Y12.343 E10.19292
G1 X21.612 Y12.863 E10.22723
G1 X21.612 Y39.907 E11.99770
G1 X21.958 Y40.129 E12.02456
G1 X22.565 Y40.724 E12.08023
G1 X23.041 Y41.432 E12.13608
G1 X23.378 Y42.258 E12.19446
G1 X23.529 Y43.126 E12.25213
G1 X23.506 Y43.964 E12.30701
G1 X23.308 Y44.805 E12.36359
G1 X22.942 Y45.589 E12.42021
G1 X22.423 Y46.281 E12.47683
G1 X21.775 Y46.853 E12.53345
G1 X21.023 Y47.281 E12.59007
G1 X20.200 Y47.546 E12.64669
G1 X19.338 Y47.638 E12.70339
G1 X18.452 Y47.546 E12.76175
G1 X17.627 Y47.281 E12.81845
G1 X16.875 Y46.853 E12.87507
G1 X16.227 Y46.281 E12.93169
G1 X15.708 Y45.589 E12.98831
G1 X15.342 Y44.805 E13.04493
G1 X15.144 Y43.964 E13.10151
G1 X15.121 Y43.126 E13.15639
G1 X15.272 Y42.258 E13.21407
G1 X15.609 Y41.432 E13.27244
G1 X16.085 Y40.724 E13.32829
G1 X16.692 Y40.129 E13.38396
G1 X16.987 Y39.940 E13.40689
G1 X17.488 Y40.153 F12000.000
G1 F2400.000
G1 X17.488 Y12.893 E15.19146
G1 X17.547 Y12.461 E15.21999
G1 X17.714 Y12.055 E15.24873
G1 X18.001 Y11.675 E15.27992
G1 X18.355 Y11.402 E15.30920
G1 X18.756 Y11.230 E15.33775
G1 X19.236 Y11.159 E15.36949
G1 X19.517 Y11.169 E15.38794
G1 X19.896 Y11.231 E15.41305
G1 X20.295 Y11.402 E15.44148
G1 X20.649 Y11.675 E15.47077
G1 X20.936 Y12.055 E15.50195
G1 X21.103 Y12.461 E15.53070
G1 X21.162 Y12.893 E15.55922
G1 X21.162 Y40.153 E17.34379
G1 X21.676 Y40.483 E17.38372
G1 X22.217 Y41.014 E17.43336
G1 X22.642 Y41.645 E17.48317
G1 X22.943 Y42.383 E17.53536
G1 X23.078 Y43.159 E17.58690
G1 X23.058 Y43.905 E17.63580
G1 X22.880 Y44.657 E17.68634
G1 X22.554 Y45.356 E17.73688
G1 X22.091 Y45.974 E17.78743
G1 X21.512 Y46.485 E17.83798
G1 X20.841 Y46.867 E17.88852
G1 X20.106 Y47.104 E17.93907
G1 X19.338 Y47.185 E17.98964
G1 X18.545 Y47.104 E18.04182
G1 X17.809 Y46.867 E18.09240
G1 X17.138 Y46.485 E18.14294
G1 X16.559 Y45.974 E18.19349
G1 X16.096 Y45.356 E18.24403
G1 X15.770 Y44.657 E18.29458
G1 X15.592 Y43.905 E18.34512
G1 X15.572 Y43.159 E18.39402
G1 X15.707 Y42.383 E18.44556
G1 X16.008 Y41.645 E18.49774
G1 X16.433 Y41.014 E18.54756
G1 X16.974 Y40.483 E18.59720
G1 X17.437 Y40.186 E18.63320
G1 X17.214 Y39.861 F12000.000
G1 E10.63320 F4800.00000
G92 E0
G1 X16.077 Y39.395 F12000.000
G1 X14.000 Y38.515
G1 X13.926 Y14.824
G1 X13.293 Y10.711
G1 X11.258 Y8.172
G1 X-11.258 Y8.172
G1 X-12.488 Y4.131
G1 X-14.000 Y0.015
G1 X-16.750 Y1.248
G1 X-16.588 Y1.162
G1 E8.00000 F1800.00000
G1 F2400.000
G1 X-16.410 Y1.276 E8.01380
G1 X-15.737 Y1.935 E8.07549
G1 X-15.210 Y2.720 E8.13737
G1 X-14.838 Y3.633 E8.20194
G1 X-14.670 Y4.593 E8.26574
G1 X-14.696 Y5.522 E8.32660
G1 X-14.915 Y6.454 E8.38923
G1 X-15.320 Y7.321 E8.45193
G1 X-15.894 Y8.088 E8.51463
G1 X-16.613 Y8.721 E8.57732
G1 X-17.445 Y9.195 E8.64001
G1 X-18.357 Y9.488 E8.70271
G1 X-19.311 Y9.590 E8.76553
G1 X-20.291 Y9.489 E8.83006
G1 X-21.205 Y9.195 E8.89289
G1 X-22.037 Y8.721 E8.95558
G1 X-22.756 Y8.088 E9.01827
G1 X-23.330 Y7.321 E9.08097
G1 X-23.735 Y6.454 E9.14367
G1 X-23.954 Y5.522 E9.20630
G1 X-23.980 Y4.593 E9.26716
G1 X-23.812 Y3.633 E9.33096
G1 X-23.440 Y2.720 E9.39553
G1 X-22.913 Y1.935 E9.45741
G1 X-22.240 Y1.276 E9.51910
G1 X-22.062 Y1.162 E9.53290
G1 X-22.062 Y-25.668 E11.28928
G1 X-21.979 Y-26.274 E11.32936
G1 X-21.724 Y-26.895 E11.37327
G1 X-21.294 Y-27.463 E11.41991
G1 X-20.755 Y-27.880 E11.46458
G1 X-20.141 Y-28.143 E11.50825
G1 X-19.464 Y-28.243 E11.55306
G1 X-19.044 Y-28.228 E11.58059
G1 X-18.501 Y-28.140 E11.61657
G1 X-17.895 Y-27.880 E11.65973
G1 X-17.356 Y-27.463 E11.70439
G1 X-16.926 Y-26.895 E11.75103
G1 X-16.671 Y-26.274 E11.79494
G1 X-16.588 Y-25.668 E11.83503
G1 X-16.588 Y1.102 E13.58748
G1 X-17.038 Y1.407 F12000.000
G1 F2400.000
G1 X-16.692 Y1.629 E13.61434
G1 X-16.085 Y2.224 E13.67000
G1 X-15.609 Y2.932 E13.72585
G1 X-15.272 Y3.758 E13.78423
G1 X-15.121 Y4.626 E13.84190
G1 X-15.144 Y5.464 E13.89678
G1 X-15.342 Y6.305 E13.95336
G1 X-15.708 Y7.089 E14.00999
G1 X-16.227 Y7.781 E14.06661
G1 X-16.875 Y8.353 E14.12323
G1 X-17.627 Y8.781 E14.17985
G1 X-18.450 Y9.046 E14.23646
G1 X-19.312 Y9.138 E14.29316
G1 X-20.198 Y9.046 E14.35152
G1 X-21.023 Y8.781 E14.40822
G1 X-21.775 Y8.353 E14.46484
G1 X-22.423 Y7.781 E14.52146
G1 X-22.942 Y7.089 E14.57808
G1 X-23.308 Y6.305 E14.63470
G1 X-23.506 Y5.464 E14.69129
G1 X-23.529 Y4.626 E14.74616
G1 X-23.378 Y3.758 E14.80384
G1 X-23.041 Y2.932 E14.86221
G1 X-22.565 Y2.224 E14.91806
G1 X-21.958 Y1.629 E14.97373
G1 X-21.612 Y1.407 E15.00059
G1 X-21.612 Y-25.637 E16.77106
G1 X-21.541 Y-26.157 E16.80537
G1 X-21.330 Y-26.670 E16.84170
G1 X-20.972 Y-27.144 E16.88061
G1 X-20.525 Y-27.489 E16.91758
G1 X-20.018 Y-27.706 E16.95370
G1 X-19.439 Y-27.792 E16.99197
G1 X-19.088 Y-27.779 E17.01496
G1 X-18.628 Y-27.705 E17.04550
G1 X-18.125 Y-27.489 E17.08130
G1 X-17.678 Y-27.144 E17.11827
G1 X-17.320 Y-26.670 E17.15719
G1 X-17.109 Y-26.157 E17.19351
G1 X-17.038 Y-25.637 E17.22782
G1 X-17.038 Y1.347 E18.99437
G1 X-17.488 Y1.653 F12000.000
G1 F2400.000
G1 X-16.974 Y1.983 E19.03429
G1 X-16.433 Y2.514 E19.08393
G1 X-16.008 Y3.145 E19.13375
G1 X-15.707 Y3.883 E19.18593
G1 X-15.572 Y4.659 E19.23747
G1 X-15.592 Y5.405 E19.28637
G1 X-15.770 Y6.157 E19.33691
G1 X-16.096 Y6.856 E19.38746
G1 X-16.559 Y7.474 E19.43800
G1 X-17.138 Y7.985 E19.48855
G1 X-17.809 Y8.367 E19.53909
G1 X-18.544 Y8.604 E19.58964
G1 X-19.312 Y8.685 E19.64021
G1 X-20.105 Y8.604 E19.69239
G1 X-20.841 Y8.367 E19.74297
G1 X-21.512 Y7.985 E19.79351
G1 X-22.091 Y7.474 E19.84406
G1 X-22.554 Y6.856 E19.89461
G1 X-22.880 Y6.157 E19.94515
G1 X-23.058 Y5.405 E19.99569
G1 X-23.078 Y4.659 E20.04459
G1 X-22.943 Y3.883 E20.09613
G1 X-22.642 Y3.145 E20.14831
G1 X-22.217 Y2.514 E20.19813
G1 X-21.676 Y1.983 E20.24777
G1 X-21.162 Y1.653 E20.28770
G1 X-21.162 Y-25.607 E22.07227
G1 X-21.103 Y-26.039 E22.10079
G1 X-20.936 Y-26.445 E22.12954
G1 X-20.649 Y-26.825 E22.16072
G1 X-20.295 Y-27.098 E22.19001
G1 X-19.894 Y-27.270 E22.21856
G1 X-19.414 Y-27.341 E22.25030
G1 X-19.133 Y-27.331 E22.26874
G1 X-18.754 Y-27.269 E22.29385
G1 X-18.355 Y-27.098 E22.32229
G1 X-18.001 Y-26.825 E22.35157
G1 X-17.714 Y-26.445 E22.38276
G1 X-17.547 Y-26.039 E22.41150
G1 X-17.488 Y-25.607 E22.44003
G1 X-17.488 Y1.593 E24.22067
G1 X-17.092 Y1.596 F12000.000
G1 E16.22067 F4800.00000
G92 E0
G1 X-11.340 Y0.887 F12000.000
G1 E8.00000 F1800.00000
G1 F2400.000
G1 X-11.412 Y-0.032 E8.06034
G1 X-11.412 Y-22.124 E9.50655
G1 X-11.340 Y-23.046 E9.56709
G1 X-11.102 Y-24.011 E9.63220
G1 X-10.744 Y-24.877 E9.69354
G1 X-10.238 Y-25.702 E9.75688
G1 X-9.610 Y-26.438 E9.82022
G1 X-8.874 Y-27.066 E9.88356
G1 X-8.049 Y-27.572 E9.94690
G1 X-7.155 Y-27.942 E10.01024
G1 X-6.215 Y-28.168 E10.07358
G1 X-5.296 Y-28.240 E10.13392
G1 X5.296 Y-28.240 E10.82728
G1 X6.215 Y-28.168 E10.88762
G1 X7.155 Y-27.942 E10.95096
G1 X8.052 Y-27.571 E11.01450
G1 X8.897 Y-27.046 E11.07962
G1 X9.610 Y-26.438 E11.14096
G1 X10.238 Y-25.702 E11.20430
G1 X10.744 Y-24.877 E11.26764
G1 X11.114 Y-23.983 E11.33098
G1 X11.340 Y-23.042 E11.39432
G1 X11.412 Y-22.124 E11.45466
G1 X11.412 Y-0.032 E12.90086
G1 X11.340 Y0.887 E12.96120
G1 X11.114 Y1.827 E13.02454
G1 X10.743 Y2.724 E13.08808
G1 X10.218 Y3.570 E13.15320
G1 X9.610 Y4.282 E13.21454
G1 X8.874 Y4.910 E13.27788
G1 X8.049 Y5.416 E13.34122
G1 X7.155 Y5.786 E13.40456
G1 X6.215 Y6.012 E13.46790
G1 X5.296 Y6.084 E13.52824
G1 X-5.296 Y6.084 E14.22160
G1 X-6.215 Y6.012 E14.28194
G1 X-7.155 Y5.786 E14.34528
G1 X-8.052 Y5.415 E14.40882
G1 X-8.897 Y4.891 E14.47394
G1 X-9.610 Y4.282 E14.53528
G1 X-10.238 Y3.546 E14.59862
G1 X-10.744 Y2.721 E14.66195
G1 X-11.114 Y1.827 E14.72529
G1 X-11.326 Y0.945 E14.78471
G1 X-10.894 Y0.816 F12000.000
G1 F2400.000
G1 X-10.962 Y-0.050 E14.84157
G1 X-10.962 Y-22.106 E16.28546
G1 X-10.894 Y-22.974 E16.34245
G1 X-10.674 Y-23.871 E16.40293
G1 X-10.342 Y-24.672 E16.45971
G1 X-9.873 Y-25.437 E16.51842
G1 X-9.291 Y-26.119 E16.57712
G1 X-8.609 Y-26.701 E16.63582
G1 X-7.844 Y-27.170 E16.69453
G1 X-7.016 Y-27.513 E16.75323
G1 X-6.144 Y-27.722 E16.81194
G1 X-5.278 Y-27.790 E16.86880
G1 X5.278 Y-27.790 E17.55985
G1 X6.144 Y-27.722 E17.61671
G1 X7.016 Y-27.513 E17.67542
G1 X7.846 Y-27.169 E17.73424
G1 X8.631 Y-26.682 E17.79472
G1 X9.291 Y-26.119 E17.85151
G1 X9.873 Y-25.437 E17.91021
G1 X10.342 Y-24.672 E17.96891
G1 X10.685 Y-23.844 E18.02762
G1 X10.894 Y-22.972 E18.08632
G1 X10.962 Y-22.106 E18.14319
G1 X10.962 Y-0.050 E19.58708
G1 X10.894 Y0.816 E19.64394
G1 X10.685 Y1.688 E19.70265
G1 X10.341 Y2.518 E19.76147
G1 X9.854 Y3.303 E19.82195
G1 X9.291 Y3.963 E19.87874
G1 X8.609 Y4.545 E19.93744
G1 X7.844 Y5.014 E19.99614
G1 X7.016 Y5.357 E20.05485
G1 X6.144 Y5.566 E20.11355
G1 X5.278 Y5.634 E20.17042
G1 X-5.278 Y5.634 E20.86146
G1 X-6.144 Y5.566 E20.91833
G1 X-7.016 Y5.357 E20.97703
G1 X-7.846 Y5.013 E21.03586
G1 X-8.631 Y4.526 E21.09634
G1 X-9.291 Y3.963 E21.15312
G1 X-9.873 Y3.281 E21.21182
G1 X-10.342 Y2.516 E21.27053
G1 X-10.685 Y1.688 E21.32923
G1 X-10.880 Y0.874 E21.38401
G1 X-10.449 Y0.745 F12000.000
G1 F2400.000
G1 X-10.512 Y-0.068 E21.43740
G1 X-10.512 Y-22.088 E22.87897
G1 X-10.448 Y-22.902 E22.93241
G1 X-10.245 Y-23.730 E22.98825
G1 X-9.940 Y-24.467 E23.04048
G1 X-9.508 Y-25.172 E23.09455
G1 X-8.972 Y-25.800 E23.14861
G1 X-8.344 Y-26.336 E23.20268
G1 X-7.639 Y-26.768 E23.25675
G1 X-6.876 Y-27.084 E23.31082
G1 X-6.073 Y-27.276 E23.36489
G1 X-5.260 Y-27.340 E23.41828
G1 X5.260 Y-27.340 E24.10701
